!!!!SEGMENT: pl-cz--ii-242--002_zeidler-jozef--benedictus-qui-venit.krn
!!!cenid: 18xx:314
!!!COM: Zeidler, Józef
!!!COM-rismid: pe30003401
!!!CDT: ~1744-1806
!!!CNT: Polish
!!!OTL: Benedictus qui venit
!!!PDT: 1823
!!!AGN: Sacred
!!!SMS-siglum: PL-CZ
!!!SMS-shelfmark: II-242
!!!SMS-shelfwork: 002 W
!!!NIFC-rismid:
!!!URL-scan: http://repozytorium.nifc.pl/skany/pl-cz-nut--ii-242
!!!ONB-nifc:
**kern	**fba	**dynam	**kern	**dynam	**kern	**dynam	**kern	**dynam	**kern	**dynam	**kern	**text	**kern	**dynam	**kern	**dynam
*part8	*	*part8	*part7	*part7	*part6	*part6	*part5	*part5	*part4	*	*part3	*part3	*part2	*part2	*part1	*part1
*staff8	*	*	*staff7	*	*staff6	*	*staff5	*	*staff4	*	*staff3	*staff3	*staff2	*	*staff1	*
*Iorgan	*	*	*Iviola	*	*Ivioln	*	*Ivioln	*	*Ivioln	*	*Itenor	*	*Icor	*	*Icor	*
*I"Organo	*	*	*I"Viola	*	*I"Violino 2.do	*	*I"Violino Primo	*	*I"Violino Principal	*	*I"Tenore.	*	*I"Corno 2 in F	*	*I"Corno 1mo in F.	*
*I'Org.	*	*	*I'V-la	*	*I'V-no 2	*	*I'V-no 1	*	*I'V-no Princ	*	*I'T.	*	*I'C. in F	*	*I'C. in F	*
*clefF4	*	*	*clefC3	*	*clefG2	*	*clefG2	*	*clefG2	*	*clefC4	*	*clefG2	*	*clefG2	*
*	*	*	*	*	*	*	*	*	*	*	*	*	*ITrd4c7	*	*ITrd4c7	*
*k[b-]	*	*	*k[b-]	*	*k[b-]	*	*k[b-]	*	*k[b-]	*	*k[b-]	*	*k[b-]	*	*k[b-]	*
*F:	*	*	*F:	*	*F:	*	*F:	*	*F:	*	*F:	*	*F:	*	*F:	*
*M2/2	*	*	*M2/2	*	*M2/2	*	*M2/2	*	*M2/2	*	*M2/2	*	*M2/2	*	*M2/2	*
*met(c|)	*	*	*met(c|)	*	*met(c|)	*	*met(c|)	*	*met(c|)	*	*met(c|)	*	*met(c|)	*	*met(c|)	*
!LO:TX:a:B:t=Andante	!	!	!LO:TX:a:B:t=Andante	!	!LO:TX:a:B:t=Andante	!	!LO:TX:a:B:t=Andante	!	!LO:TX:a:B:t=Andante	!	!LO:TX:a:B:t=Andante	!	!LO:TX:a:B:t=Andante	!	!LO:TX:a:B:t=Andante	!
!LO:SIC:o:t:v=jedyny bemol przy kluczu na środkowej linii	!	!	!	!	!	!	!	!	!	!	!	!	!	!	!	!
*	*	*below	*	*	*	*	*	*below	*	*	*	*	*	*	*	*
4r	.	p	4r	.	4r	.	4r	p	(16a\LL	.	4r	.	4r	.	4r	.
.	.	.	.	.	.	.	.	.	16cc\	.	.	.	.	.	.	.
.	.	.	.	.	.	.	.	.	16ff\	.	.	.	.	.	.	.
.	.	.	.	.	.	.	.	.	16aa\JJ)	.	.	.	.	.	.	.
=1	=1	=1	=1	=1	=1	=1	=1	=1	=1	=1	=1	=1	=1	=1	=1	=1
!	!	!	!	!	!	!LO:DY:rj	!	!	!	!	!LO:TX:a:t=22	!	!LO:TX:a:t=4	!	!LO:TX:a:t=4	!
4F\	5 3	.	4f\	p	8r	p	8r	<	2ccc\	.	1r	.	00r	.	00r	.
.	.	.	.	.	8c/L	.	8f/L 8a/	.	.	.	.	.	.	.	.	.
4r	.	.	4r	.	8c/	.	8f/ 8a/	.	.	.	.	.	.	.	.	.
.	.	.	.	.	8c/J	.	8f/J 8a/	.	.	.	.	.	.	.	.	.
4F\	_ _	.	4f\	.	8r	.	8r	.	(16bbn\LL	.	.	.	.	.	.	.
.	.	.	.	.	.	.	.	.	16ccc\	.	.	.	.	.	.	.
!	!	!	!	!	!LO:SIC:o:t:v=znak powtórzenia grupy	!	!	!	!	!	!	!	!	!	!	!
*	*	*	*	*	*rep	*	*	*	*	*	*	*	*	*	*	*
.	.	.	.	.	8c/L	.	8f/L 8a/	.	16ddd\	.	.	.	.	.	.	.
.	.	.	.	.	.	.	.	.	16ccc\JJ	.	.	.	.	.	.	.
4r	x x	.	4r	.	8c/	.	8f/ 8a/	.	16bb-X\LL	.	.	.	.	.	.	.
.	.	.	.	.	.	.	.	.	16aa\	.	.	.	.	.	.	.
.	.	.	.	.	8c/J	.	8f/J 8a/	.	16gg\	.	.	.	.	.	.	.
.	.	.	.	.	.	.	.	.	16ff\JJ)	.	.	.	.	.	.	.
*	*	*	*	*	*Xrep	*	*	*	*	*	*	*	*	*	*	*
=2	=2	=2	=2	=2	=2	=2	=2	=2	=2	=2	=2	=2	=2	=2	=2	=2
4C/	7 5	.	4c\	.	8r	.	8r	.	8.ee\L	.	1r	.	.	.	.	.
.	.	.	.	.	8c/L 8e/	.	8g/L 8b-/	.	.	.	.	.	.	.	.	.
.	.	.	.	.	.	.	.	.	(16gg\Jk	.	.	.	.	.	.	.
4r	.	.	4r	.	8c/ 8e/	.	8g/ 8b-/	.	4bb-\)	.	.	.	.	.	.	.
.	.	.	.	.	8c/J 8e/	.	8g/J 8b-/	.	.	.	.	.	.	.	.	.
4C/	_ _	.	4c\	.	8r	.	8r	.	4r	.	.	.	.	.	.	.
!	!	!	!	!	!LO:SIC:o:t:v=znak powtórzenia grupy	!	!	!	!	!	!	!	!	!	!	!
*	*	*	*	*	*rep	*	*	*	*	*	*	*	*	*	*	*
.	.	.	.	.	8c/L 8e/	.	8g/L 8b-/	.	.	.	.	.	.	.	.	.
4r	x x	.	4r	.	8c/ 8e/	.	8g/ 8b-/	.	(16g\LL	.	.	.	.	.	.	.
.	.	.	.	.	.	.	.	.	16cc\	.	.	.	.	.	.	.
.	.	.	.	.	8c/J 8e/	.	8g/J 8b-/	.	16ee\)	.	.	.	.	.	.	.
.	.	.	.	.	.	.	.	.	16gg\JJ	.	.	.	.	.	.	.
*	*	*	*	*	*Xrep	*	*	*	*	*	*	*	*	*	*	*
=3	=3	=3	=3	=3	=3	=3	=3	=3	=3	=3	=3	=3	=3	=3	=3	=3
4C/	_ _	.	4c\	.	8r	.	8r	.	(2bb-\	.	1r	.	.	.	.	.
.	.	.	.	.	8c/L 8e/	.	8g/L 8b-/	.	.	.	.	.	.	.	.	.
4r	x x	.	4r	.	8c/ 8e/	.	8g/ 8b-/	.	.	.	.	.	.	.	.	.
.	.	.	.	.	8c/J 8e/	.	8g/J 8b-/	.	.	.	.	.	.	.	.	.
4C/	_ _	.	4c\	.	8r	.	8r	.	16aa\LL	.	.	.	.	.	.	.
.	.	.	.	.	.	.	.	.	16bb-\	.	.	.	.	.	.	.
.	.	.	.	.	8c/L 8e/	.	8g/L 8b-/	.	16ccc\	.	.	.	.	.	.	.
.	.	.	.	.	.	.	.	.	16bb-\JJ	.	.	.	.	.	.	.
4r	x x	.	4r	.	8c/ 8e/	.	8g/ 8b-/	.	16aa\LL	.	.	.	.	.	.	.
.	.	.	.	.	.	.	.	.	16gg\	.	.	.	.	.	.	.
.	.	.	.	.	8c/J 8e/	.	8g/J 8b-/	.	16ff\)	.	.	.	.	.	.	.
.	.	.	.	.	.	.	.	.	16ee\JJ	.	.	.	.	.	.	.
=4	=4	=4	=4	=4	=4	=4	=4	=4	=4	=4	=4	=4	=4	=4	=4	=4
4F\	5 3	.	4f\	.	8r	.	8r	.	8.ff\L	.	1r	.	.	.	.	.
.	.	.	.	.	8c/L 8f/	.	8a/L	.	.	.	.	.	.	.	.	.
.	.	.	.	.	.	.	.	.	16aa\Jk	.	.	.	.	.	.	.
4r	.	.	4r	.	8c/ 8f/	.	8a/	.	4ccc\	.	.	.	.	.	.	.
.	.	.	.	.	8c/J 8f/	.	8a/J	.	.	.	.	.	.	.	.	.
!	!	!	!	!	!LO:SIC:o:t:v=znak powtórzenia grupy	!	!	!	!	!	!	!	!	!	!	!
4F\	_ _	.	4f\	.	8r	.	8r	.	4r	.	.	.	.	.	.	.
*	*	*	*	*	*rep	*	*	*	*	*	*	*	*	*	*	*
.	.	.	.	.	8c/L 8f/	.	8a/L	.	.	.	.	.	.	.	.	.
4r	x x	.	4r	.	8c/ 8f/	.	8a/	.	4ccc\	.	.	.	.	.	.	.
.	.	.	.	.	8c/J 8f/	.	8a/J	.	.	.	.	.	.	.	.	.
*	*	*	*	*	*Xrep	*	*	*	*	*	*	*	*	*	*	*
=5	=5	=5	=5	=5	=5	=5	=5	=5	=5	=5	=5	=5	=5	=5	=5	=5
!	!	!	!	!	!	!	!	!	!LO:PB:g=original	!	!	!	!	!	!	!
!	!	!	!	!	!	!	!	!	!LO:SIC:o:t:v=mixed beam	!	!	!	!	!LO:DY:rj	!	!LO:DY:rj
4F\	6 4	.	4B-/	.	8r	.	8r	.	8ddd'\L	.	1r	.	1F/	pp	1f/	pp
.	.	.	.	.	8d/L 8f/	.	8b-\L	.	8B-'/	.	.	.	.	.	.	.
4r	.	.	4r	.	8d/ 8f/	.	8b-\	.	8d'/	.	.	.	.	.	.	.
.	.	.	.	.	8d/J 8f/	.	8b-\J	.	8f'/J	.	.	.	.	.	.	.
4F\	_ _	.	4B-/	.	8r	.	8r	.	(16b-\LL	.	.	.	.	.	.	.
.	.	.	.	.	.	.	.	.	16dd\	.	.	.	.	.	.	.
!	!	!	!	!	!LO:SIC:o:t:v=znak powtórzenia grupy	!	!	!	!	!	!	!	!	!	!	!
*	*	*	*	*	*rep	*	*	*	*	*	*	*	*	*	*	*
.	.	.	.	.	8d/L 8f/	.	8b-\L	.	16ff\	.	.	.	.	.	.	.
.	.	.	.	.	.	.	.	.	16bb-\JJ)	.	.	.	.	.	.	.
4r	.	.	4r	.	8d/ 8f/	.	8b-\	.	8ddd'\L	.	.	.	.	.	.	.
.	.	.	.	.	8d/J 8f/	.	8b-\J	.	8fff'\J	.	.	.	.	.	.	.
*	*	*	*	*	*Xrep	*	*	*	*	*	*	*	*	*	*	*
=6	=6	=6	=6	=6	=6	=6	=6	=6	=6	=6	=6	=6	=6	=6	=6	=6
!	!	!	!	!	!	!	!	!	!LO:N:vis=4	!	!	!	!	!	!	!
4F\	5 3	.	4f\	.	8r	.	8r	.	4.fff\	.	1r	.	1F/	.	1f/	.
.	.	.	.	.	8c/L 8f/	.	8a\L	.	.	.	.	.	.	.	.	.
!	!	!	!	!	!	!	!	!	!LO:SIC:o:t:v=brak pauzy lub kropki przy ćwierćnucie	!	!	!	!	!	!	!
4r	.	.	4r	.	8c/ 8f/	.	8a\	.	.	.	.	.	.	.	.	.
.	.	.	.	.	8c/J 8f/	.	8a\J	.	16eee\LL	.	.	.	.	.	.	.
.	.	.	.	.	.	.	.	.	16ddd\JJ	.	.	.	.	.	.	.
!	!	!	!	!	!LO:SIC:o:t:v=znak powtórzenia grupy	!	!	!	!	!	!	!	!	!	!	!
4F\	_ _	.	4f\	.	8r	.	8r	.	4ccc\	.	.	.	.	.	.	.
*	*	*	*	*	*rep	*	*	*	*	*	*	*	*	*	*	*
.	.	.	.	.	8c/L 8f/	.	8a\L	.	.	.	.	.	.	.	.	.
4r	x x	.	4r	.	8c/ 8f/	.	8a\	.	8r	.	.	.	.	.	.	.
.	.	.	.	.	8c/J 8f/	.	8a\J	.	8aa\	.	.	.	.	.	.	.
*	*	*	*	*	*Xrep	*	*	*	*	*	*	*	*	*	*	*
=7	=7	=7	=7	=7	=7	=7	=7	=7	=7	=7	=7	=7	=7	=7	=7	=7
!	!	!	!	!	!LO:PB:g=original	!	!LO:PB:g=original	!	!	!	!	!	!	!	!	!
!	!	!	!	!	!	!	!	!	!	!	!	!	!	!	!LO:TX:a:t=2	!
4C/	7 5	.	4c\	.	4e/	.	4g/	.	(8ccc\L	.	1r	.	0r	.	0r	.
.	.	.	.	.	.	.	.	.	8bb-\	.	.	.	.	.	.	.
4r	.	.	4e\	.	4g/	.	4b-/	.	8aa\)	.	.	.	.	.	.	.
.	.	.	.	.	.	.	.	.	8gg\J	.	.	.	.	.	.	.
4F\	3	.	4f\	.	4a/	.	4cc/	.	(8bb-\L	.	.	.	.	.	.	.
.	.	.	.	.	.	.	.	.	8aa\	.	.	.	.	.	.	.
4A\	6 3	.	4f\	.	4f/	.	4a/	.	8gg\	.	.	.	.	.	.	.
.	.	.	.	.	.	.	.	.	8ff\J)	.	.	.	.	.	.	.
=8	=8	=8	=8	=8	=8	=8	=8	=8	=8	=8	=8	=8	=8	=8	=8	=8
4c\	4	.	4c\	.	4c/	.	4c/	.	(4aa\	.	1r	.	.	.	.	.
4C/	.	.	4c\	.	4cc\	.	4cc\	.	16aa\LL	.	.	.	.	.	.	.
.	.	.	.	.	.	.	.	.	16bb-\	.	.	.	.	.	.	.
.	.	.	.	.	.	.	.	.	16bbn\	.	.	.	.	.	.	.
.	.	.	.	.	.	.	.	.	16ccc\JJ)	.	.	.	.	.	.	.
4c\	3	.	4c\	.	4c/	.	4cc\	.	4gg\	.	.	.	.	.	.	.
4r	.	.	4r	.	4r	.	4r	.	8r	.	.	.	.	.	.	.
.	.	.	.	.	.	.	.	.	8cc'\	.	.	.	.	.	.	.
=9	=9	=9	=9	=9	=9	=9	=9	=9	=9	=9	=9	=9	=9	=9	=9	=9
!LO:PB:g=original	!	!	!LO:PB:g=original	!	!	!	!	!	!	!	!	!	!	!	!	!
!	!	!	!	!	!LO:SIC:o:t:v=takty 9-10 w powtórce	!	!	!	!	!	!	!	!	!	!	!LO:DY:rj
8C/	7 5	.	8c\	.	8r	.	8r	.	(16g\LL	.	1r	.	1c/	.	1g/	pp
.	.	.	.	.	.	.	.	.	16cc\	.	.	.	.	.	.	.
8r	.	.	8r	.	8c/ 8e/	.	8g/ 8b-/	.	16ee\)	.	.	.	.	.	.	.
.	.	.	.	.	.	.	.	.	16gg\JJ	.	.	.	.	.	.	.
8C/	_ _	.	8c\	.	8r	.	8r	.	(16bb-X\LL	.	.	.	.	.	.	.
.	.	.	.	.	.	.	.	.	16aa\	.	.	.	.	.	.	.
8r	x x	.	8r	.	8c/ 8e/	.	8g/ 8b-/	.	16gg\	.	.	.	.	.	.	.
.	.	.	.	.	.	.	.	.	16ff\JJ)	.	.	.	.	.	.	.
8C/	_ _	.	8c\	.	8r	.	8r	.	(16ee\LL	.	.	.	.	.	.	.
.	.	.	.	.	.	.	.	.	16ff\	.	.	.	.	.	.	.
8r	x x	.	8r	.	8c/ 8e/	.	8g/ 8b-/	.	16gg\	.	.	.	.	.	.	.
.	.	.	.	.	.	.	.	.	16ff\JJ)	.	.	.	.	.	.	.
8C/	_ _	.	8c\	.	8r	.	8r	.	(16ee\LL	.	.	.	.	.	.	.
.	.	.	.	.	.	.	.	.	16dd\	.	.	.	.	.	.	.
8r	x x	.	8r	.	8c/ 8e/	.	8g/ 8b-/	.	16cc\)	.	.	.	.	.	.	.
.	.	.	.	.	.	.	.	.	16b-\JJ	.	.	.	.	.	.	.
=10	=10	=10	=10	=10	=10	=10	=10	=10	=10	=10	=10	=10	=10	=10	=10	=10
!	!	!	!	!	!	!	!	!	!LO:PB:g=original	!	!	!	!	!	!	!
8F\	3	.	8c\	.	8r	.	8r	.	16a\LL	.	1r	.	1A/	.	1f/	.
.	.	.	.	.	.	.	.	.	16cc\	.	.	.	.	.	.	.
8r	x	.	8r	.	8c/ 8f/	.	8a/	.	16dd\	.	.	.	.	.	.	.
.	.	.	.	.	.	.	.	.	16ee\JJ	.	.	.	.	.	.	.
8F\	_	.	8c\	.	8r	.	8r	.	16ff\LL	.	.	.	.	.	.	.
.	.	.	.	.	.	.	.	.	16gg\	.	.	.	.	.	.	.
8r	x	.	8r	.	8c/ 8f/	.	8a/	.	16aa\	.	.	.	.	.	.	.
.	.	.	.	.	.	.	.	.	16bb-\JJ	.	.	.	.	.	.	.
8F\	_	.	8c\	.	8r	.	8r	.	16ccc\LL	.	.	.	.	.	.	.
.	.	.	.	.	.	.	.	.	16ddd\	.	.	.	.	.	.	.
8r	x	.	8r	.	8c/ 8f/	.	8a/	.	16eee\	.	.	.	.	.	.	.
.	.	.	.	.	.	.	.	.	16fff\JJ	.	.	.	.	.	.	.
8F\	_	.	8c\	.	8r	.	8r	.	8ccc\L	.	.	.	.	.	.	.
8r	x	.	8r	.	8c/ 8f/	.	8a/	.	8ccc\J	.	.	.	.	.	.	.
=11	=11	=11	=11	=11	=11	=11	=11	=11	=11	=11	=11	=11	=11	=11	=11	=11
8C\	7 5	.	8c\	.	8ryy	.	8r	.	4bb-\	.	1r	.	1c/	.	1g/	.
8r	.	.	8r	.	8c/yy 8eyy/	.	8g/ 8b-/	.	.	.	.	.	.	.	.	.
8C\	_ _	.	8c\	.	8ryy	.	8r	.	16bb-\LL	.	.	.	.	.	.	.
.	.	.	.	.	.	.	.	.	16aa\	.	.	.	.	.	.	.
8r	x x	.	8r	.	8c/yy 8eyy/	.	8g/ 8b-/	.	16gg\	.	.	.	.	.	.	.
.	.	.	.	.	.	.	.	.	16ff\JJ	.	.	.	.	.	.	.
8C\	_ _	.	8c\	.	8ryy	.	8r	.	16ee\LL	.	.	.	.	.	.	.
.	.	.	.	.	.	.	.	.	16ff\	.	.	.	.	.	.	.
8r	x x	.	8r	.	8c/yy 8eyy/	.	8g/ 8b-/	.	16gg\	.	.	.	.	.	.	.
.	.	.	.	.	.	.	.	.	16ff\JJ	.	.	.	.	.	.	.
8C\	_ _	.	8c\	.	8ryy	.	8r	.	16ee\LL	.	.	.	.	.	.	.
.	.	.	.	.	.	.	.	.	16dd\	.	.	.	.	.	.	.
8r	x x	.	8r	.	8c/yy 8eyy/	.	8g/ 8b-/	.	16cc\	.	.	.	.	.	.	.
.	.	.	.	.	.	.	.	.	16b-\JJ	.	.	.	.	.	.	.
=12	=12	=12	=12	=12	=12	=12	=12	=12	=12	=12	=12	=12	=12	=12	=12	=12
8F\	5 3	.	8c\	.	8ryy	.	8r	.	16a/LL	.	1r	.	1A/	.	1f/	.
.	.	.	.	.	.	.	.	.	16f/	.	.	.	.	.	.	.
8r	.	.	8r	.	8c/yy 8fyy/	.	8a/	.	16g/	.	.	.	.	.	.	.
.	.	.	.	.	.	.	.	.	16a/JJ	.	.	.	.	.	.	.
8F\	_ _	.	8c\	.	8ryy	.	8r	.	16b-\LL	.	.	.	.	.	.	.
.	.	.	.	.	.	.	.	.	16cc\	.	.	.	.	.	.	.
8r	x x	.	8r	.	8c/yy 8fyy/	.	8a/	.	16dd\	.	.	.	.	.	.	.
.	.	.	.	.	.	.	.	.	16ee\JJ	.	.	.	.	.	.	.
8F\	_ _	.	8c\	.	8ryy	.	8r	.	16ff\LL	.	.	.	.	.	.	.
.	.	.	.	.	.	.	.	.	16gg\	.	.	.	.	.	.	.
8r	x x	.	8r	.	8c/yy 8fyy/	.	8a/	.	16aa\	.	.	.	.	.	.	.
.	.	.	.	.	.	.	.	.	16bb-\JJ	.	.	.	.	.	.	.
8F\	_ _	.	8c\	.	8ryy	.	8r	.	8ccc\L	.	.	.	.	.	.	.
8r	x x	.	8r	.	8c/yy 8fyy/	.	8a/	.	8ccc\J	.	.	.	.	.	.	.
=13	=13	=13	=13	=13	=13	=13	=13	=13	=13	=13	=13	=13	=13	=13	=13	=13
!	!	!	!	!	!	!	!	!	!	!	!	!	!LO:TX:a:t=8	!	!LO:TX:a:t=8	!
4F\	_ _	.	1f\	.	8A/L	.	8c/L	.	2fff\	.	1r	.	00r	.	00r	.
.	.	.	.	.	8B-/	.	8d/	.	.	.	.	.	.	.	.	.
4r	X x	.	.	.	8c/	.	8e/	.	.	.	.	.	.	.	.	.
.	.	.	.	.	8d/J	.	8f/J	.	.	.	.	.	.	.	.	.
4F\	6 5	.	.	.	8c/L	.	8e-X/L	.	2e-XT/	.	.	.	.	.	.	.
.	.	.	.	.	8B-/	.	8d/	.	.	.	.	.	.	.	.	.
4r	.	.	.	.	8A/	.	8c/	.	.	.	.	.	.	.	.	.
.	.	.	.	.	8c/J	.	8e-/J	.	.	.	.	.	.	.	.	.
=14	=14	=14	=14	=14	=14	=14	=14	=14	=14	=14	=14	=14	=14	=14	=14	=14
!	!	!	!	!	!	!	!LO:PB:g=original	!	!LO:PB:g=original	!	!	!	!	!	!	!
4BB-/	5 3	.	4B-/	.	4d/	.	4f/	.	16d'/LL	.	1r	.	.	.	.	.
.	.	.	.	.	.	.	.	.	(16B-/	.	.	.	.	.	.	.
.	.	.	.	.	.	.	.	.	16f/)	.	.	.	.	.	.	.
.	.	.	.	.	.	.	.	.	16d'/JJ	.	.	.	.	.	.	.
4r	.	.	4r	.	4r	.	4r	.	16b-'/LL	.	.	.	.	.	.	.
.	.	.	.	.	.	.	.	.	(16f/	.	.	.	.	.	.	.
.	.	.	.	.	.	.	.	.	16dd/)	.	.	.	.	.	.	.
.	.	.	.	.	.	.	.	.	16b-'/JJ	.	.	.	.	.	.	.
2r	.	.	2r	.	2r	.	2r	.	16ff'\LL	.	.	.	.	.	.	.
.	.	.	.	.	.	.	.	.	(16dd\	.	.	.	.	.	.	.
.	.	.	.	.	.	.	.	.	16bb-\)	.	.	.	.	.	.	.
.	.	.	.	.	.	.	.	.	16ff'\JJ	.	.	.	.	.	.	.
.	.	.	.	.	.	.	.	.	16ddd'\LL	.	.	.	.	.	.	.
.	.	.	.	.	.	.	.	.	(16bb-\	.	.	.	.	.	.	.
.	.	.	.	.	.	.	.	.	16fff\)	.	.	.	.	.	.	.
.	.	.	.	.	.	.	.	.	16ddd'\JJ	.	.	.	.	.	.	.
=15	=15	=15	=15	=15	=15	=15	=15	=15	=15	=15	=15	=15	=15	=15	=15	=15
!LO:PB:g=original	!	!	!	!	!	!	!	!	!	!	!	!	!	!	!	!
8F\	3	.	4f\	.	8r	.	8r	.	16ccc\LL	.	1r	.	.	.	.	.
.	.	.	.	.	.	.	.	.	16ddd\	.	.	.	.	.	.	.
8r	.	.	.	.	8c/	.	8f/	.	16eee\	.	.	.	.	.	.	.
.	.	.	.	.	.	.	.	.	16fff\JJ	.	.	.	.	.	.	.
8BB-/	.	.	4B-/	.	8r	.	8r	.	16eee\LL	.	.	.	.	.	.	.
.	.	.	.	.	.	.	.	.	16ddd\	.	.	.	.	.	.	.
8r	.	.	.	.	8B-/	.	8f/	.	16ccc\	.	.	.	.	.	.	.
.	.	.	.	.	.	.	.	.	16bb-\JJ	.	.	.	.	.	.	.
4C/	.	.	4c/	.	4A/	.	4f/	.	4aa\	.	.	.	.	.	.	.
4C/	3	.	4c/	.	4G/	.	4e/	.	4ggT\	.	.	.	.	.	.	.
=16	=16	=16	=16	=16	=16	=16	=16	=16	=16	=16	=16	=16	=16	=16	=16	=16
!	!	!	!LO:PB:g=original	!	!	!	!	!	!	!	!	!	!	!	!	!
4F\	.	.	4F/	.	4A/	.	4f/	.	4ff\	.	1r	.	.	.	.	.
4r	.	.	4r	.	4ff\	.	4aa\	.	2ccc\	.	.	.	.	.	.	.
2r	.	.	2r	.	4ee\	.	4gg\	.	.	.	.	.	.	.	.	.
.	.	.	.	.	4dd\	.	4ff\	.	4bb-\	.	.	.	.	.	.	.
=17	=17	=17	=17	=17	=17	=17	=17	=17	=17	=17	=17	=17	=17	=17	=17	=17
!	!	!	!	!	!LO:PB:g=original	!	!	!	!	!	!	!	!	!	!	!
!LO:TX:a:t=2	!	!	!LO:TX:a:t=2	!	!	!	!	!	!	!	!	!	!	!	!	!
0r	.	.	0r	.	4cc\	.	2ee-X\	.	(4aa\	.	1r	.	00r	.	00r	.
.	.	.	.	.	4b-\	.	.	.	4gg\	.	.	.	.	.	.	.
.	.	.	.	.	4a\	.	4dd\	.	4ff#X\	.	.	.	.	.	.	.
.	.	.	.	.	4cc\	.	4dd\	.	4aa\)	.	.	.	.	.	.	.
=18	=18	=18	=18	=18	=18	=18	=18	=18	=18	=18	=18	=18	=18	=18	=18	=18
.	.	.	.	.	8b-\L	.	8dd\L	.	(16gg\LL	.	1r	.	.	.	.	.
.	.	.	.	.	.	.	.	.	16aa\)	.	.	.	.	.	.	.
.	.	.	.	.	8cc\	.	8ee-X\	.	(16ff#X\	.	.	.	.	.	.	.
.	.	.	.	.	.	.	.	.	16aa\JJ)	.	.	.	.	.	.	.
.	.	.	.	.	8b-\	.	8dd\	.	(16gg\LL	.	.	.	.	.	.	.
.	.	.	.	.	.	.	.	.	16aa\)	.	.	.	.	.	.	.
.	.	.	.	.	8cc\J	.	8ee-\J	.	(16ff#\	.	.	.	.	.	.	.
.	.	.	.	.	.	.	.	.	16aa\JJ)	.	.	.	.	.	.	.
.	.	.	.	.	8b-/L	.	8dd\L	.	(16gg\LL	.	.	.	.	.	.	.
.	.	.	.	.	.	.	.	.	16bb-\)	.	.	.	.	.	.	.
.	.	.	.	.	8f#X/	.	8cc\	.	(16aa\	.	.	.	.	.	.	.
.	.	.	.	.	.	.	.	.	16ccc\JJ)	.	.	.	.	.	.	.
.	.	.	.	.	8g/	.	8dd\	.	(16bb-\LL	.	.	.	.	.	.	.
.	.	.	.	.	.	.	.	.	16ddd\)	.	.	.	.	.	.	.
.	.	.	.	.	8g/J	.	8b-\J	.	(16ccc\	.	.	.	.	.	.	.
.	.	.	.	.	.	.	.	.	16bb-\JJ)	.	.	.	.	.	.	.
=19	=19	=19	=19	=19	=19	=19	=19	=19	=19	=19	=19	=19	=19	=19	=19	=19
!	!	!	!	!	!	!	!	!	!LO:PB:g=original	!	!	!	!	!	!	!
4C/	6 4	.	4c\	.	4f/ 4a/	.	4cc\	.	(16aa\LL	.	1r	.	.	.	.	.
.	.	.	.	.	.	.	.	.	16bb-\	.	.	.	.	.	.	.
.	.	.	.	.	.	.	.	.	16bbn\	.	.	.	.	.	.	.
.	.	.	.	.	.	.	.	.	16ccc\JJ)	.	.	.	.	.	.	.
4r	.	.	4r	.	4r	.	4r	.	(16ff\LL	.	.	.	.	.	.	.
.	.	.	.	.	.	.	.	.	16gg\	.	.	.	.	.	.	.
.	.	.	.	.	.	.	.	.	16gg#X\	.	.	.	.	.	.	.
.	.	.	.	.	.	.	.	.	16aa\JJ)	.	.	.	.	.	.	.
2r	.	.	2r	.	2r	.	2r	.	(16cc\LL	.	.	.	.	.	.	.
.	.	.	.	.	.	.	.	.	16dd\	.	.	.	.	.	.	.
.	.	.	.	.	.	.	.	.	16ee\	.	.	.	.	.	.	.
.	.	.	.	.	.	.	.	.	16ff\JJ)	.	.	.	.	.	.	.
.	.	.	.	.	.	.	.	.	(16a/LL	.	.	.	.	.	.	.
.	.	.	.	.	.	.	.	.	16b-/	.	.	.	.	.	.	.
.	.	.	.	.	.	.	.	.	16bn/	.	.	.	.	.	.	.
.	.	.	.	.	.	.	.	.	16cc/JJ)	.	.	.	.	.	.	.
=20	=20	=20	=20	=20	=20	=20	=20	=20	=20	=20	=20	=20	=20	=20	=20	=20
!!pagebreak:original
!	!	!	!	!	!LO:TX:a:t=1	!	!LO:TX:a:t=1	!	!	!	!	!	!	!	!	!
1r	.	.	1r	.	1r	.	1r	.	8fT/L	.	1r	.	.	.	.	.
.	.	.	.	.	.	.	.	.	16g/L	.	.	.	.	.	.	.
.	.	.	.	.	.	.	.	.	16a/JJ	.	.	.	.	.	.	.
.	.	.	.	.	.	.	.	.	16b-\LL	.	.	.	.	.	.	.
.	.	.	.	.	.	.	.	.	16cc\	.	.	.	.	.	.	.
.	.	.	.	.	.	.	.	.	16dd\	.	.	.	.	.	.	.
.	.	.	.	.	.	.	.	.	16ee\JJ	.	.	.	.	.	.	.
.	.	.	.	.	.	.	.	.	16ff\LL	.	.	.	.	.	.	.
.	.	.	.	.	.	.	.	.	16gg\	.	.	.	.	.	.	.
.	.	.	.	.	.	.	.	.	16aa\	.	.	.	.	.	.	.
.	.	.	.	.	.	.	.	.	16bb-\JJ	.	.	.	.	.	.	.
.	.	.	.	.	.	.	.	.	16ccc\LL	.	.	.	.	.	.	.
.	.	.	.	.	.	.	.	.	16ddd\	.	.	.	.	.	.	.
.	.	.	.	.	.	.	.	.	16eee\	.	.	.	.	.	.	.
.	.	.	.	.	.	.	.	.	16fff\JJ	.	.	.	.	.	.	.
=21	=21	=21	=21	=21	=21	=21	=21	=21	=21	=21	=21	=21	=21	=21	=21	=21
*	*	*	*	*	*	*	*	*	*	*	*	*	*2\right	*	*	*
!	!	!	!	!	!	!	!	!	!	!	!	!	!LO:SIC:o:t:v=laska z prawej strony	!	!LO:SIC:o:t:v=laska z prawej strony	!LO:DY:rj
4C/	6 4	.	4c\	.	8r	.	8r	.	2c/	.	1r	.	2f\	.	2a\	p
.	.	.	.	.	8c/L 8f/	.	8a/L	.	.	.	.	.	.	.	.	.
4r	.	.	4r	.	8c/ 8f/	.	8a/	.	.	.	.	.	.	.	.	.
.	.	.	.	.	8c/J 8f/	.	8a/J	.	.	.	.	.	.	.	.	.
.	.	.	.	.	.	.	.	.	16qqff/LL	.	.	.	.	.	.	.
!	!	!	!	!	!	!	!	!	!	!	!	!	!	!	!LO:SIC:o:t:v=laska z prawej strony	!
.	.	.	.	.	.	.	.	.	16qqgg/JJ	.	.	.	.	.	.	.
4C/	5 3	.	4c\	.	8r	.	8r	.	2ggT\	.	.	.	2c/	.	2g\	.
.	.	.	.	.	8c/L 8e/	.	8g/L 8b-/	.	.	.	.	.	.	.	.	.
4r	.	.	4r	.	8c/ 8e/	.	8g/ 8b-/	.	.	.	.	.	.	.	.	.
.	.	.	.	.	8c/J 8e/	.	8g/J 8b-/	.	.	.	.	.	.	.	.	.
=22	=22	=22	=22	=22	=22	=22	=22	=22	=22	=22	=22	=22	=22	=22	=22	=22
1F\	5 3	.	1f\	.	4a\	.	4cc\	.	4ff\	.	1r	.	1F/	.	1f/	.
.	6- 4	.	.	.	4b-\	.	4cc\	.	(16ee\LL	.	.	.	.	.	.	.
.	.	.	.	.	.	.	.	.	16bb-\)	.	.	.	.	.	.	.
.	.	.	.	.	.	.	.	.	(16ee\	.	.	.	.	.	.	.
.	.	.	.	.	.	.	.	.	16gg\JJ)	.	.	.	.	.	.	.
.	5 3	.	.	.	4a\	.	4cc\	.	8ff\L	.	.	.	.	.	.	.
.	.	.	.	.	.	.	.	.	8ccc\J	.	.	.	.	.	.	.
.	6- 4	.	.	.	4b-\	.	4cc\	.	16ee\LL	.	.	.	.	.	.	.
.	.	.	.	.	.	.	.	.	16bb-\	.	.	.	.	.	.	.
.	.	.	.	.	.	.	.	.	16ee\	.	.	.	.	.	.	.
.	.	.	.	.	.	.	.	.	16gg\JJ	.	.	.	.	.	.	.
=23	=23	=23	=23	=23	=23	=23	=23	=23	=23	=23	=23	=23	=23	=23	=23	=23
!	!	!	!	!	!	!	!	!	!LO:PB:g=original	!	!	!	!	!	!	!
!	!	!	!LO:SIC:o:v=f zapisane for	!	!	!	!	!	!LO:N:vis=2.	!	!	!	!	!	!	!
4F\	6- 4	.	4f\	f	2f/ 2b-/	.	2cc\	.	2gg\	.	2r	.	2F/	.	2f\	.
4C/	.	.	4c\	.	.	.	.	.	.	.	.	.	.	.	.	.
.	.	.	.	.	.	.	.	.	16qqaa/LL	.	.	.	.	.	.	.
.	.	.	.	.	.	.	.	.	16qqgg/JJ	.	.	.	.	.	.	.
4FF/	5 3	.	4F/	.	4f/ 4a/	.	4cc\	.	4ff\	.	4r	.	4F/	.	4f\	.
!	!	!	!	!	!	!	!	!	!	!	!LO:TX:a:i:t=Dolce	!	!	!	!	!
4r	.	.	4r	.	4r	.	4r	.	4r	.	8c\	Be-	4r	.	4r	.
.	.	.	.	.	.	.	.	.	.	.	8c\	-ne-	.	.	.	.
=24	=24	=24	=24	=24	=24	=24	=24	=24	=24	=24	=24	=24	=24	=24	=24	=24
!	!	!	!	!	!	!	!	!	!	!	!	!	!LO:PB:g=original	!	!LO:PB:g=original	!
!	!	!	!	!LO:DY:rj	!	!	!	!	!LO:TX:a:t=4	!	!	!	!LO:TX:a:t=57	!	!LO:TX:a:t=57	!
4F\	.	.	4c\	p	8r	.	8r	.	00r	.	2f\	-di-	1r	.	1r	.
.	.	.	.	.	8f/L	.	8a/L	.	.	.	.	.	.	.	.	.
4r	.	.	4r	.	8f/	.	8a/	.	.	.	.	.	.	.	.	.
.	.	.	.	.	8f/J	.	8a/J	.	.	.	.	.	.	.	.	.
4C/	8 3	.	4c\	.	8r	.	8r	.	.	.	4c\	-ctus	.	.	.	.
.	.	.	.	.	8e/L	.	8g/L	.	.	.	.	.	.	.	.	.
4r	.	.	4r	.	8e/	.	8g/	.	.	.	4B-\	qui	.	.	.	.
.	.	.	.	.	8e/J	.	8g/J	.	.	.	.	.	.	.	.	.
=25	=25	=25	=25	=25	=25	=25	=25	=25	=25	=25	=25	=25	=25	=25	=25	=25
!LO:PB:g=original	!	!	!	!	!	!	!LO:PB:g=original	!	!	!	!	!	!	!	!	!
4F\	3	.	4F/	.	8r	.	8r	.	.	.	4.A\	ve-	1r	.	1r	.
.	.	.	.	.	8f/L 8a/	.	8cc\L	.	.	.	.	.	.	.	.	.
4r	.	.	4r	.	8f/ 8a/	.	8cc\	.	.	.	.	.	.	.	.	.
.	.	.	.	.	8f/J 8a/	.	8cc\J	.	.	.	8G\	.	.	.	.	.
4F\	.	.	4F/	.	8r	.	8r	.	.	.	4F/	-nit	.	.	.	.
!	!	!	!	!	!LO:SIC:o:t:v=znak powtórzenia grupy	!	!	!	!	!	!	!	!	!	!	!
*	*	*	*	*	*rep	*	*	*	*	*	*	*	*	*	*	*
.	.	.	.	.	8f/L 8a/	.	8cc\L	.	.	.	.	.	.	.	.	.
4r	.	.	4r	.	8f/ 8a/	.	8cc\	.	.	.	4F/	qui	.	.	.	.
.	.	.	.	.	8f/J 8a/	.	8cc\J	.	.	.	.	.	.	.	.	.
*	*	*	*	*	*Xrep	*	*	*	*	*	*	*	*	*	*	*
=26	=26	=26	=26	=26	=26	=26	=26	=26	=26	=26	=26	=26	=26	=26	=26	=26
!	!	!	!	!	!LO:PB:g=original	!	!	!	!	!	!	!	!	!	!	!
4F\	6 4	.	4A/	.	8r	.	8r	.	.	.	(8D/L	ve-	1r	.	1r	.
.	.	.	.	.	8d/L	.	8f/L 8b-/	.	.	.	8F/J)	.	.	.	.	.
4r	.	.	4r	.	8d/	.	8f/ 8b-/	.	.	.	8B-\	-nit	.	.	.	.
.	.	.	.	.	8d/J	.	8f/J 8b-/	.	.	.	8d\	in	.	.	.	.
4F\	6 4	.	4A/	.	8r	.	8r	.	.	.	8f\L	no-	.	.	.	.
!	!	!	!	!	!LO:SIC:o:t:v=znak powtórzenia grupy	!	!	!	!	!	!	!	!	!	!	!
*	*	*	*	*	*rep	*	*	*	*	*	*	*	*	*	*	*
.	.	.	.	.	8d/L	.	8f/L 8b-/	.	.	.	8e\J	.	.	.	.	.
4r	.	.	4r	.	8d/	.	8f/ 8b-/	.	.	.	8f\	-mi-	.	.	.	.
.	.	.	.	.	8d/J	.	8f/J 8b-/	.	.	.	8d\	-ne	.	.	.	.
*	*	*	*	*	*Xrep	*	*	*	*	*	*	*	*	*	*	*
=27	=27	=27	=27	=27	=27	=27	=27	=27	=27	=27	=27	=27	=27	=27	=27	=27
4F\	5 3	.	4F/	.	8r	.	8r	.	.	.	4.c\	Do-	1r	.	1r	.
.	.	.	.	.	8c/L	.	8a/L	.	.	.	.	.	.	.	.	.
4r	.	.	4r	.	8c/	.	8a/	.	.	.	.	.	.	.	.	.
.	.	.	.	.	8B-/J	.	8g/J	.	.	.	8B-\	-mi-	.	.	.	.
4F\	_ _	.	4F/	.	8r	.	8r	.	.	.	4A\	-ni	.	.	.	.
.	.	.	.	.	8A/L	.	8f/L	.	.	.	.	.	.	.	.	.
4r	x x	.	4r	.	8c/	.	8a/	.	.	.	(8c\L	qui	.	.	.	.
.	.	.	.	.	8d/J	.	8b-/J	.	.	.	8d\J)	.	.	.	.	.
=28	=28	=28	=28	=28	=28	=28	=28	=28	=28	=28	=28	=28	=28	=28	=28	=28
!	!	!	!	!	!	!	!	!	!	!	!LO:PB:g=original	!	!	!	!	!
4C/	7 5	.	4e\	.	8r	.	8r	.	2r	.	(8c\L	ve-	1r	.	1r	.
.	.	.	.	.	8B-/L	.	8g/L	.	.	.	8B-\J)	.	.	.	.	.
4r	.	.	4r	.	8B-/	.	8g/	.	.	.	4B-\	-nit	.	.	.	.
.	.	.	.	.	8B-/J	.	8g/J	.	.	.	.	.	.	.	.	.
4C/	_ _	.	4e\	.	8r	.	8r	.	(16bb-\LL	.	4r	.	.	.	.	.
.	.	.	.	.	.	.	.	.	16gg\	.	.	.	.	.	.	.
.	.	.	.	.	8B-/L	.	8g/L	.	16ee\)	.	.	.	.	.	.	.
.	.	.	.	.	.	.	.	.	16cc\JJ	.	.	.	.	.	.	.
4r	x x	.	4r	.	8B-/	.	8g/	.	4b-\	.	8B-\L	qui	.	.	.	.
.	.	.	.	.	8c/J	.	8a/J	.	.	.	8c\J	.	.	.	.	.
=29	=29	=29	=29	=29	=29	=29	=29	=29	=29	=29	=29	=29	=29	=29	=29	=29
!	!	!	!LO:PB:g=original	!	!	!	!	!	!	!	!	!	!	!	!	!
4F\	3	.	4c\	.	8r	.	8r	.	2r	.	(8B-\L	ve-	1r	.	1r	.
.	.	.	.	.	8A/L	.	8f/L	.	.	.	8A\J)	.	.	.	.	.
4r	.	.	4r	.	8A/	.	8f/	.	.	.	4A\	-nit	.	.	.	.
.	.	.	.	.	8A/J	.	8f/J	.	.	.	.	.	.	.	.	.
4F\	3	.	4f\	.	8r	.	8r	.	(16aa\LL	.	4r	.	.	.	.	.
.	.	.	.	.	.	.	.	.	16ff\	.	.	.	.	.	.	.
.	.	.	.	.	8c/L	.	8g/L	.	16cc\)	.	.	.	.	.	.	.
.	.	.	.	.	.	.	.	.	16a\JJ	.	.	.	.	.	.	.
4r	.	.	4r	.	8c/	.	8g/	.	4f/	.	4c\	in	.	.	.	.
.	.	.	.	.	8c/J	.	8a/J	.	.	.	.	.	.	.	.	.
=30	=30	=30	=30	=30	=30	=30	=30	=30	=30	=30	=30	=30	=30	=30	=30	=30
!LO:SIC:o:t:v=laska z prawej strony	!	!	!	!	!	!	!	!	!LO:TX:a:t=1	!	!	!	!	!	!	!
2F\	.	.	4f\	.	8f/L	.	8a/L	.	1r	.	8f\L	no-	1r	.	1r	.
.	.	.	.	.	8e/	.	8g/	.	.	.	8e\J	.	.	.	.	.
.	.	.	4r	.	8d/	.	8f/	.	.	.	8d\	-mi-	.	.	.	.
.	.	.	.	.	8c/J	.	8e/J	.	.	.	8c\	-ne	.	.	.	.
4BB-/	7	.	4B-/	.	8c/L	.	8a/L	.	.	.	(8c\L	Do-	.	.	.	.
.	6	.	.	.	8B-/	.	8g/	.	.	.	8B-\J)	.	.	.	.	.
4BB-/	6	.	4B-/	.	8A/	.	8g/	.	.	.	(8B-\L	-mi-	.	.	.	.
.	5	.	.	.	8A/J	.	8f/J	.	.	.	8A\J)	.	.	.	.	.
=31	=31	=31	=31	=31	=31	=31	=31	=31	=31	=31	=31	=31	=31	=31	=31	=31
4C/	5 3	.	4c\	.	4G/	.	4c/ 4e/	.	4r	.	2G/	-ni	1r	.	1r	.
4C/	_ _	.	4c\	.	4G/	.	4c/ 4e/	.	(16g\LL	.	.	.	.	.	.	.
.	.	.	.	.	.	.	.	.	16cc\	.	.	.	.	.	.	.
.	.	.	.	.	.	.	.	.	16ee\	.	.	.	.	.	.	.
.	.	.	.	.	.	.	.	.	16gg\JJ)	.	.	.	.	.	.	.
4C/	_ _	.	4c\	.	4G/	.	4c/ 4e/	.	4ccc\	.	4r	.	.	.	.	.
4r	x x	.	4r	.	4r	.	4r	.	4r	.	8G/	Be-	.	.	.	.
.	.	.	.	.	.	.	.	.	.	.	8G/	-ne	.	.	.	.
=32	=32	=32	=32	=32	=32	=32	=32	=32	=32	=32	=32	=32	=32	=32	=32	=32
!	!	!	!	!	!	!	!	!	!LO:TX:a:t=5	!	!LO:SIC:o:t:v=laska z prawej strony	!	!	!	!	!
4C/	5 3	.	4c\	.	8r	.	8r	.	00r	.	2e\	di-	1r	.	1r	.
.	.	.	.	.	8g/L	.	8cc\L	.	.	.	.	.	.	.	.	.
4r	.	.	4r	.	8g/	.	8cc\	.	.	.	.	.	.	.	.	.
.	.	.	.	.	8g/J	.	8cc\J	.	.	.	.	.	.	.	.	.
4D\	6/	.	4d\	.	8r	.	8r	.	.	.	4d\	-ctus	.	.	.	.
.	.	.	.	.	8f/L	.	8a\L	.	.	.	.	.	.	.	.	.
4E\	6 3	.	4e\	.	8e/	.	8g\	.	.	.	4c\	qui	.	.	.	.
.	.	.	.	.	8e/J	.	8g\J	.	.	.	.	.	.	.	.	.
=33	=33	=33	=33	=33	=33	=33	=33	=33	=33	=33	=33	=33	=33	=33	=33	=33
!LO:PB:g=original	!	!	!	!	!LO:PB:g=original	!	!LO:PB:g=original	!	!	!	!	!	!	!	!	!
*	*	*	*	*	*tremolo	*	*tremolo	*	*	*	*	*	*	*	*	*
8F\L	4 2#	.	8f\L	.	8g/L	.	8bn\L	.	.	.	(16Bn\LL	ve-	1r	.	1r	.
.	.	.	.	.	.	.	.	.	.	.	16d\)	.	.	.	.	.
8E\	6 3	.	8e\	.	8g/	.	8b\	.	.	.	(16c\	.	.	.	.	.
.	.	.	.	.	.	.	.	.	.	.	16e\JJ)	.	.	.	.	.
8D\	6/	.	8d\	.	8g/	.	8b\	.	.	.	(16d\LL	.	.	.	.	.
.	.	.	.	.	.	.	.	.	.	.	16f\)	.	.	.	.	.
!LO:SIC:o:v=niezrozumiałe cyfrowanie	!	!	!	!	!	!	!	!	!	!	!	!	!	!	!	!
8C\J	- 0	.	8c\J	.	8g/J	.	8b\J	.	.	.	(16e\	.	.	.	.	.
.	.	.	.	.	.	.	.	.	.	.	16g\JJ)	.	.	.	.	.
4BBn/	6 5	.	4Bn/	.	4g/	.	4b\	.	.	.	4f\	-nit	.	.	.	.
4r	.	.	4r	.	4r	.	4r	.	.	.	8G/	be-	.	.	.	.
.	.	.	.	.	.	.	.	.	.	.	8G/	-ne-	.	.	.	.
*	*	*	*	*	*Xtremolo	*	*Xtremolo	*	*	*	*	*	*	*	*	*
=34	=34	=34	=34	=34	=34	=34	=34	=34	=34	=34	=34	=34	=34	=34	=34	=34
!	!	!	!	!	!	!	!	!	!	!	!LO:PB:g=original	!	!	!	!	!
!	!	!	!LO:SIC:v:s=4Bn	!	!	!	!	!	!	!	!	!	!	!	!	!
4BBn/	6/ 5	.	4B-/	.	8r	.	8r	.	.	.	2f\	-Di-	1r	.	1r	.
.	.	.	.	.	8g/L	.	8g/L	.	.	.	.	.	.	.	.	.
4r	.	.	4r	.	8g/	.	8g/	.	.	.	.	.	.	.	.	.
.	.	.	.	.	8g/J	.	8g/J	.	.	.	.	.	.	.	.	.
4C/	3	.	4c\	.	8r	.	8r	.	.	.	4e\	-ctus	.	.	.	.
.	.	.	.	.	8g/L	.	8g/L	.	.	.	.	.	.	.	.	.
4F\	4n 2	.	4d\	.	8g/	.	8g/	.	.	.	4d\	qui	.	.	.	.
.	.	.	.	.	8g/J	.	8g/J	.	.	.	.	.	.	.	.	.
=35	=35	=35	=35	=35	=35	=35	=35	=35	=35	=35	=35	=35	=35	=35	=35	=35
*	*	*	*	*	*tremolo	*	*tremolo	*	*	*	*	*	*	*	*	*
8E\L	3	.	8e\L	.	8g/L	.	8cc\L	.	.	.	(16c\LL	ve-	1r	.	1r	.
.	.	.	.	.	.	.	.	.	.	.	16e\)	.	.	.	.	.
8BBn\	6 5	.	8f\	.	8g/	.	8cc\	.	.	.	(16d\	.	.	.	.	.
.	.	.	.	.	.	.	.	.	.	.	16f\JJ)	.	.	.	.	.
8C\	3	.	8e\	.	8g/	.	8cc\	.	.	.	16e\LL	.	.	.	.	.
.	.	.	.	.	.	.	.	.	.	.	16g\	.	.	.	.	.
8D\J	6/ 3	.	8Bn\J	.	8g/J	.	8cc\J	.	.	.	16f\	.	.	.	.	.
.	.	.	.	.	.	.	.	.	.	.	16a\JJ	.	.	.	.	.
4E\	6	.	4c\	.	4g/	.	4cc\	.	.	.	4g\	-nit	.	.	.	.
4r	.	.	4r	.	4r	.	4r	.	.	.	8g\	be-	.	.	.	.
.	.	.	.	.	.	.	.	.	.	.	8e\	-ne	.	.	.	.
*	*	*	*	*	*Xtremolo	*	*Xtremolo	*	*	*	*	*	*	*	*	*
=36	=36	=36	=36	=36	=36	=36	=36	=36	=36	=36	=36	=36	=36	=36	=36	=36
4AA/	7 5 3#	.	4e\	.	8r	.	8r	.	1r	.	8d\L	di-	1r	.	1r	.
.	.	.	.	.	8e/L	.	8g/L	.	.	.	8c#X\J	.	.	.	.	.
4r	.	.	4r	.	8f/	.	8a/	.	.	.	2c#\	-ctus	.	.	.	.
.	.	.	.	.	8g/J	.	8b-/J	.	.	.	.	.	.	.	.	.
4A\	_ _ #	.	4A/	.	8g/L	.	8b-/L	.	.	.	.	.	.	.	.	.
.	.	.	.	.	8f/	.	8a/	.	.	.	.	.	.	.	.	.
4r	x x x	.	4r	.	8f/	.	8a/	.	.	.	4c#\	qui	.	.	.	.
.	.	.	.	.	8e/J	.	8g/J	.	.	.	.	.	.	.	.	.
=37	=37	=37	=37	=37	=37	=37	=37	=37	=37	=37	=37	=37	=37	=37	=37	=37
4D\	5 3n	.	4d\	.	4d/	.	4f/	.	4r	.	(8e\L	ve-	1r	.	1r	.
.	.	.	.	.	.	.	.	.	.	.	8d\J)	.	.	.	.	.
4D\	.	.	4d\	.	4f/	.	4a/	.	(16aa\LL	.	4d\	-nit	.	.	.	.
.	.	.	.	.	.	.	.	.	16ddd\)	.	.	.	.	.	.	.
.	.	.	.	.	.	.	.	.	(16ff\	.	.	.	.	.	.	.
.	.	.	.	.	.	.	.	.	16aa\JJ)	.	.	.	.	.	.	.
4D\	.	.	4d\	.	4d/	.	4f/	.	4dd\	.	4r	.	.	.	.	.
4r	.	.	4r	.	4r	.	4r	.	4r	.	8f\	be-	.	.	.	.
.	.	.	.	.	.	.	.	.	.	.	8d\	-ne	.	.	.	.
=38	=38	=38	=38	=38	=38	=38	=38	=38	=38	=38	=38	=38	=38	=38	=38	=38
!	!	!	!LO:PB:g=original	!	!	!	!	!	!	!	!	!	!	!	!	!
!	!	!	!	!	!	!	!	!	!LO:TX:a:t=1	!	!	!	!	!	!	!
4GG/	7 5	.	4d\	.	8r	.	8r	.	1r	.	8cn\L	di-	1r	.	1r	.
.	.	.	.	.	8d/L	.	8f/L	.	.	.	8Bn\J	.	.	.	.	.
4r	.	.	4r	.	8e/	.	8g/	.	.	.	2B\	-ctus	.	.	.	.
.	.	.	.	.	8f/J	.	8a/J	.	.	.	.	.	.	.	.	.
4D\	6\	.	4G/	.	8f/L	.	8a/L	.	.	.	.	.	.	.	.	.
.	.	.	.	.	8e/	.	8g/	.	.	.	.	.	.	.	.	.
4r	.	.	4r	.	8e/	.	8f/	.	.	.	4B\	qui	.	.	.	.
.	.	.	.	.	8d/J	.	8f/J	.	.	.	.	.	.	.	.	.
=39	=39	=39	=39	=39	=39	=39	=39	=39	=39	=39	=39	=39	=39	=39	=39	=39
4C\	5 3	.	4c\	.	4c/	.	4e/	.	4r	.	(8d\L	ve-	1r	.	1r	.
.	.	.	.	.	.	.	.	.	.	.	8c\J)	.	.	.	.	.
4C\	.	.	4c\	.	4e/	.	4g/	.	16gg\LL	.	4c\	-nit	.	.	.	.
.	.	.	.	.	.	.	.	.	16ccc\	.	.	.	.	.	.	.
.	.	.	.	.	.	.	.	.	16ee\	.	.	.	.	.	.	.
.	.	.	.	.	.	.	.	.	16gg\JJ	.	.	.	.	.	.	.
4C\	.	.	4c\	.	4c/	.	4e/	.	4cc\	.	4r	.	.	.	.	.
4r	.	.	4r	.	4r	.	4r	.	4r	.	4e\	in	.	.	.	.
=40	=40	=40	=40	=40	=40	=40	=40	=40	=40	=40	=40	=40	=40	=40	=40	=40
!LO:PB:g=original	!	!	!	!	!	!	!	!	!LO:PB:g=original	!	!LO:PB:g=original	!	!	!	!	!
!	!	!	!	!	!	!	!	!	!LO:TX:a:t=2	!	!	!	!	!	!	!
2F\	6 3	.	2f\	.	2a/	.	2cc\	.	0r	.	(8e\L	no-	1r	.	1r	.
.	.	.	.	.	.	.	.	.	.	.	8d\J)	.	.	.	.	.
.	.	.	.	.	.	.	.	.	.	.	8f\	-mi-	.	.	.	.
.	.	.	.	.	.	.	.	.	.	.	8e\	-ne	.	.	.	.
4F\	6 3	.	4f\	.	4a/	.	4dd\	.	.	.	(8e\L	do-	.	.	.	.
.	.	.	.	.	.	.	.	.	.	.	8d\J)	.	.	.	.	.
4F#X\	_ _	.	4f#X\	.	4a/	.	4cc\	.	.	.	(8d\L	-mi-	.	.	.	.
.	x x	.	.	.	.	.	.	.	.	.	8c\J)	.	.	.	.	.
=41	=41	=41	=41	=41	=41	=41	=41	=41	=41	=41	=41	=41	=41	=41	=41	=41
*	*	*	*	*	*tremolo	*	*tremolo	*	*	*	*	*	*	*	*	*
2G\	n	.	2g\	.	8d/L	.	8bn\L	.	.	.	2Bn\	-ni	1r	.	1r	.
.	.	.	.	.	8g/	.	8b\	.	.	.	.	.	.	.	.	.
.	.	.	.	.	8g/	.	8b\	.	.	.	.	.	.	.	.	.
.	.	.	.	.	8g/J	.	8b\J	.	.	.	.	.	.	.	.	.
2r	.	.	2r	.	8g/L	.	8b\L	.	.	.	4G/	be-	.	.	.	.
.	.	.	.	.	8g/	.	8b\	.	.	.	.	.	.	.	.	.
.	.	.	.	.	8g/	.	8b\	.	.	.	4G/	-ne-	.	.	.	.
.	.	.	.	.	8g/J	.	8b\J	.	.	.	.	.	.	.	.	.
=42	=42	=42	=42	=42	=42	=42	=42	=42	=42	=42	=42	=42	=42	=42	=42	=42
!	!	!	!	!	!LO:PB:g=original	!	!	!	!	!	!	!	!	!	!	!
!	!	!	!	!	!	!	!LO:TX:t=P:złe wyświetlanie tremolo prawdopodobnie przez linię "!":problem	!	!	!	!	!	!	!	!	!
*	*	*	*tremolo	*	*	*	*	*	*	*	*	*	*	*	*	*
4GG/	7 5	.	8G/L	.	8d/L	.	8f/L	.	4r	.	(16f\LL	-di-	1r	.	1r	.
.	.	.	.	.	.	.	.	.	.	.	16g\	.	.	.	.	.
!	!	!	!	!	!	!	!LO:SIC:s:v=8bn w całym takcie	!	!	!	!	!	!	!	!	!
.	.	.	8d/	.	8f/	.	8b-/	.	.	.	16f\	.	.	.	.	.
.	.	.	.	.	.	.	.	.	.	.	16e\JJ)	.	.	.	.	.
4r	.	.	8G/	.	8d/	.	8f/	.	(16ff\LL	.	4d\	-ctus	.	.	.	.
.	.	.	.	.	.	.	.	.	16gg\	.	.	.	.	.	.	.
.	.	.	8d/J	.	8f/J	.	8b-/J	.	16ff\	.	.	.	.	.	.	.
.	.	.	.	.	.	.	.	.	16ee\JJ)	.	.	.	.	.	.	.
4G\	_ _	.	8G/L	.	8d/L	.	8g/L	.	4dd\	.	4r	.	.	.	.	.
.	.	.	8d/	.	8f/	.	8b-/	.	.	.	.	.	.	.	.	.
4r	x x	.	8G/	.	8d/	.	8g/	.	4r	.	4G/	qui	.	.	.	.
.	.	.	8d/J	.	8f/J	.	8b-/J	.	.	.	.	.	.	.	.	.
=43	=43	=43	=43	=43	=43	=43	=43	=43	=43	=43	=43	=43	=43	=43	=43	=43
*	*	*	*2\right	*	*	*	*	*	*	*	*	*	*	*	*	*
!	!	!	!LO:SIC:o:t:v=w całym takcie laski z prawej strony	!	!	!	!	!	!	!	!	!	!	!	!	!
4C/	5 3	.	8c\L	.	8e/L	.	8g/L	.	4r	.	(16e\LL	ve-	1r	.	1r	.
.	.	.	.	.	.	.	.	.	.	.	16f\	.	.	.	.	.
.	.	.	8e\	.	8g/	.	8cc/	.	.	.	16e\	.	.	.	.	.
.	.	.	.	.	.	.	.	.	.	.	16d\JJ)	.	.	.	.	.
4r	.	.	8c\	.	8e/	.	8g/	.	(16ee\LL	.	4c\	-nit	.	.	.	.
.	.	.	.	.	.	.	.	.	16ff\	.	.	.	.	.	.	.
.	.	.	8e\J	.	8g/J	.	8cc/J	.	16ee\	.	.	.	.	.	.	.
.	.	.	.	.	.	.	.	.	16dd\JJ)	.	.	.	.	.	.	.
!	!	!	!	!	!LO:SIC:o:t:v=znak powtórzenia grupy	!	!	!	!	!	!	!	!	!	!	!
*	*	*	*	*	*rep	*	*	*	*	*	*	*	*	*	*	*
4c\	_ _	.	8c\L	.	8e/L	.	8g/L	.	4cc\	.	4r	.	.	.	.	.
.	.	.	8e\	.	8g/	.	8cc/	.	.	.	.	.	.	.	.	.
4r	x x	.	8c\	.	8e/	.	8g/	.	4r	.	4c\	qui	.	.	.	.
.	.	.	8e\J	.	8g/J	.	8cc/J	.	.	.	.	.	.	.	.	.
*	*	*	*	*	*Xrep	*	*Xtremolo	*	*	*	*	*	*	*	*	*
=44	=44	=44	=44	=44	=44	=44	=44	=44	=44	=44	=44	=44	=44	=44	=44	=44
!	!	!	!	!	!	!	!LO:PB:g=original	!	!	!	!	!	!	!	!	!
!	!	!	!	!	!	!	!	!	!LO:TX:a:t=4	!	!	!	!	!	!	!
4F\	.	.	4f\	.	4f/	.	4a/	.	00r	.	(8A\L	ve-	1r	.	1r	.
.	.	.	.	.	.	.	.	.	.	.	8Bn\	.	.	.	.	.
4r	.	.	4r	.	4r	.	4r	.	.	.	8c\	.	.	.	.	.
.	.	.	.	.	.	.	.	.	.	.	8c#X\J)	.	.	.	.	.
*	*	*	*	*	*2\right	*	*	*	*	*	*	*	*	*	*	*
8F\L	6 3	.	(8f\L	.	8a\L	.	8cc\L	.	.	.	(8d\L	-nit	.	.	.	.
8E\	8 3	.	8e\	.	8a\	.	8cc\	.	.	.	8e\J)	.	.	.	.	.
8D\	10 5	.	8d\	.	8a\	.	8cc#X\	.	.	.	8f\L	in	.	.	.	.
8C\J	4# 2	.	8c\J)	.	8a\J	.	8cc#\J	.	.	.	8f#X\J	.	.	.	.	.
=45	=45	=45	=45	=45	=45	=45	=45	=45	=45	=45	=45	=45	=45	=45	=45	=45
*	*	*	*	*	*Xtremolo	*	*	*	*	*	*	*	*	*	*	*
4BBn/	6 3	.	4Bn\	.	4bn\	.	4dd\	.	.	.	4g\	no-	1r	.	1r	.
4GG/	7 5	.	4G/	.	4dd\	.	4dd\	.	.	.	4fn\	-mi-	.	.	.	.
4AA/	5 3	.	4A/	.	4ee\	.	4cc\	.	.	.	4e\	-ne	.	.	.	.
4AA/	.	.	4A/	.	4cc\	.	4ee\	.	.	.	4e\	in	.	.	.	.
=46	=46	=46	=46	=46	=46	=46	=46	=46	=46	=46	=46	=46	=46	=46	=46	=46
!	!	!	!	!	!	!	!	!	!	!	!LO:PB:g=original	!	!	!	!	!
4F\	6 3	.	4F/	.	4a\	.	2dd\	.	.	.	8e^\L	no-	1r	.	1r	.
.	.	.	.	.	.	.	.	.	.	.	8d\J	.	.	.	.	.
4F\	.	.	4f\	.	8a\L	.	.	.	.	.	8f\	-mi-	.	.	.	.
.	.	.	.	.	8f\J	.	.	.	.	.	8d\	-ne	.	.	.	.
4G\	.	.	4g\	.	(8f/L	.	4cc\	.	.	.	(8d\L	Do-	.	.	.	.
.	4	.	.	.	8e/)	.	.	.	.	.	8c\J)	.	.	.	.	.
4GG/	3n	.	4G/	.	(8e/	.	4bn\	.	.	.	(8c\L	-mi-	.	.	.	.
.	.	.	.	.	8d/J)	.	.	.	.	.	8Bn\J)	.	.	.	.	.
=47	=47	=47	=47	=47	=47	=47	=47	=47	=47	=47	=47	=47	=47	=47	=47	=47
2C/	.	.	2c\	.	2e/	.	2cc\	.	.	.	2c\	-ni	1r	.	1r	.
2r	.	.	2r	.	2r	.	2r	.	.	.	4e\	be-	.	.	.	.
.	.	.	.	.	.	.	.	.	.	.	4d\	-ne	.	.	.	.
=48	=48	=48	=48	=48	=48	=48	=48	=48	=48	=48	=48	=48	=48	=48	=48	=48
!	!	!	!LO:PB:g=original	!	!	!	!	!	!	!	!	!	!	!	!	!
!LO:TX:a:t=2	!	!	!LO:TX:a:t=2	!	!	!	!	!	!	!	!	!	!	!	!	!
0r	.	.	0r	.	2r	.	2r	.	4cc\	.	(4f\	di-	1r	.	1r	.
.	.	.	.	.	.	.	.	.	4cc\	.	4e\)	.	.	.	.	.
.	.	.	.	.	4f/	.	4a/	.	4aa\	.	4d\	-ctus	.	.	.	.
.	.	.	.	.	4e/	.	4g/	.	4gg\	.	4c\	qui	.	.	.	.
=49	=49	=49	=49	=49	=49	=49	=49	=49	=49	=49	=49	=49	=49	=49	=49	=49
.	.	.	.	.	2d/	.	2f#X/	.	2ff#X^\	.	(8c\L	ve-	1r	.	1r	.
.	.	.	.	.	.	.	.	.	.	.	8e-X\	.	.	.	.	.
.	.	.	.	.	.	.	.	.	.	.	8d\	.	.	.	.	.
.	.	.	.	.	.	.	.	.	.	.	8c\J)	.	.	.	.	.
.	.	.	.	.	4G/	.	4g/	.	(8ffn\L	.	4Bn\	-nit	.	.	.	.
.	.	.	.	.	.	.	.	.	8aa\	.	.	.	.	.	.	.
.	.	.	.	.	4g/	.	4bn/	.	8gg\	.	4B\	in	.	.	.	.
.	.	.	.	.	.	.	.	.	8ff\J)	.	.	.	.	.	.	.
=50	=50	=50	=50	=50	=50	=50	=50	=50	=50	=50	=50	=50	=50	=50	=50	=50
4C\	5	.	4c\	.	4e/	.	4cc\	.	(8ee\L	.	8c\L	no-	1r	.	1r	.
.	.	.	.	.	.	.	.	.	8cc\	.	8en\J	.	.	.	.	.
.	.	.	.	.	.	.	.	.	.	.	8qqg/	.	.	.	.	.
4F\	6 3	.	4f\	.	4A/	.	4dd\	.	8a\	.	8f\	-mi-	.	.	.	.
.	.	.	.	.	.	.	.	.	.	.	8qqe/	.	.	.	.	.
.	.	.	.	.	.	.	.	.	8f\J)	.	8d\	-ne	.	.	.	.
4G\	6 4	.	4g\	.	4G/	.	4ee\	.	4e/	.	4c\	Do-	.	.	.	.
4GG/	5 3n	.	4G/	.	4G/	.	4dd\	.	4g/	.	4Bn\	-mi-	.	.	.	.
=51	=51	=51	=51	=51	=51	=51	=51	=51	=51	=51	=51	=51	=51	=51	=51	=51
!LO:PB:g=original	!	!	!	!	!	!	!	!	!	!	!	!	!	!	!	!
4C/	3	.	4c\	.	8c/L	.	8cc\L	.	2cc\	.	4c\	-ni	1r	.	1r	.
.	.	.	.	.	8e/J	.	8g\J	.	.	.	.	.	.	.	.	.
4r	.	.	4r	.	4c/	.	4e/	.	.	.	4r	.	.	.	.	.
2r	.	.	2r	.	2r	.	2r	.	16ff#X\LL	.	2r	.	.	.	.	.
.	.	.	.	.	.	.	.	.	(16gg\	.	.	.	.	.	.	.
.	.	.	.	.	.	.	.	.	16aa\	.	.	.	.	.	.	.
.	.	.	.	.	.	.	.	.	16gg\JJ	.	.	.	.	.	.	.
.	.	.	.	.	.	.	.	.	16ffn\LL	.	.	.	.	.	.	.
.	.	.	.	.	.	.	.	.	16ee\)	.	.	.	.	.	.	.
.	.	.	.	.	.	.	.	.	16dd\	.	.	.	.	.	.	.
.	.	.	.	.	.	.	.	.	16cc\JJ	.	.	.	.	.	.	.
=52	=52	=52	=52	=52	=52	=52	=52	=52	=52	=52	=52	=52	=52	=52	=52	=52
!	!	!	!	!	!LO:PB:g=original	!	!	!	!LO:PB:g=original	!	!	!	!	!	!	!
!	!	!	!	!	!	!	!	!	!	!	!LO:TX:a:t=14	!	!	!	!	!
8D\L	6 4	.	8d\L	.	8f/L	.	8g/L	.	(16bn\LL	.	1r	.	1r	.	1r	.
.	.	.	.	.	.	.	.	.	16dd\)	.	.	.	.	.	.	.
8C\	8 3	.	8c\	.	8e/	.	8g/	.	(16cc\	.	.	.	.	.	.	.
.	.	.	.	.	.	.	.	.	16ee\JJ)	.	.	.	.	.	.	.
8F\	n1 3	.	8Bn\	.	8d/	.	8f/	.	16dd\LL	.	.	.	.	.	.	.
.	.	.	.	.	.	.	.	.	16ff\	.	.	.	.	.	.	.
8E\J	6 3	.	8c\J	.	8c/J	.	8e/J	.	16ee\	.	.	.	.	.	.	.
.	.	.	.	.	.	.	.	.	16gg\JJ	.	.	.	.	.	.	.
4G\	n	.	4d\	.	4d/	.	4g/	.	16ff\LL	.	.	.	.	.	.	.
.	.	.	.	.	.	.	.	.	16ee\	.	.	.	.	.	.	.
.	.	.	.	.	.	.	.	.	16dd\	.	.	.	.	.	.	.
.	.	.	.	.	.	.	.	.	16cc\JJ	.	.	.	.	.	.	.
4GG/	7	.	4g\	.	4g/	.	4bn\	.	16bn\LL	.	.	.	.	.	.	.
.	.	.	.	.	.	.	.	.	16a\	.	.	.	.	.	.	.
.	.	.	.	.	.	.	.	.	16g\	.	.	.	.	.	.	.
.	.	.	.	.	.	.	.	.	16f\JJ	.	.	.	.	.	.	.
=53	=53	=53	=53	=53	=53	=53	=53	=53	=53	=53	=53	=53	=53	=53	=53	=53
4C/	3	.	4c\	.	4e/	.	4cc\	.	16e\LL	.	1r	.	1r	.	1r	.
.	.	.	.	.	.	.	.	.	16g\	.	.	.	.	.	.	.
.	.	.	.	.	.	.	.	.	16cc\	.	.	.	.	.	.	.
.	.	.	.	.	.	.	.	.	16ee\JJ	.	.	.	.	.	.	.
4r	.	.	4r	.	4r	.	4r	.	16gg\LL	.	.	.	.	.	.	.
.	.	.	.	.	.	.	.	.	16ee\	.	.	.	.	.	.	.
.	.	.	.	.	.	.	.	.	16aa\	.	.	.	.	.	.	.
.	.	.	.	.	.	.	.	.	16gg\JJ	.	.	.	.	.	.	.
2r	.	.	2r	.	2r	.	2r	.	16ff#X\LL	.	.	.	.	.	.	.
.	.	.	.	.	.	.	.	.	16gg\	.	.	.	.	.	.	.
.	.	.	.	.	.	.	.	.	16aa\	.	.	.	.	.	.	.
.	.	.	.	.	.	.	.	.	16gg\JJ	.	.	.	.	.	.	.
.	.	.	.	.	.	.	.	.	16ffn\LL	.	.	.	.	.	.	.
.	.	.	.	.	.	.	.	.	16ee\	.	.	.	.	.	.	.
.	.	.	.	.	.	.	.	.	16dd\	.	.	.	.	.	.	.
.	.	.	.	.	.	.	.	.	16cc\JJ	.	.	.	.	.	.	.
=54	=54	=54	=54	=54	=54	=54	=54	=54	=54	=54	=54	=54	=54	=54	=54	=54
8D\L	6\ 4	.	8d\L	.	8f/L	.	8g/L	.	16bn\LL	.	1r	.	1r	.	1r	.
.	.	.	.	.	.	.	.	.	16dd\	.	.	.	.	.	.	.
8C\	x 3	.	8c\	.	8e/	.	8g/	.	16cc\	.	.	.	.	.	.	.
.	.	.	.	.	.	.	.	.	16ee\JJ	.	.	.	.	.	.	.
8F\	4n 2	.	8Bn\	.	8d/	.	8f/	.	16dd\LL	.	.	.	.	.	.	.
.	.	.	.	.	.	.	.	.	16ff\	.	.	.	.	.	.	.
8E\J	6 3	.	8c\J	.	8c/J	.	8e/J	.	16ee\	.	.	.	.	.	.	.
.	.	.	.	.	.	.	.	.	16gg\JJ	.	.	.	.	.	.	.
4G\	n	.	4d\	.	4d/	.	4g/	.	16ff\LL	.	.	.	.	.	.	.
.	.	.	.	.	.	.	.	.	16ee\	.	.	.	.	.	.	.
.	.	.	.	.	.	.	.	.	16dd\	.	.	.	.	.	.	.
.	.	.	.	.	.	.	.	.	16cc\JJ	.	.	.	.	.	.	.
4GG/	7	.	4G/	.	4g/	.	4bn\	.	16bn\LL	.	.	.	.	.	.	.
.	.	.	.	.	.	.	.	.	16a\	.	.	.	.	.	.	.
.	.	.	.	.	.	.	.	.	16g\	.	.	.	.	.	.	.
.	.	.	.	.	.	.	.	.	16f\JJ	.	.	.	.	.	.	.
=55	=55	=55	=55	=55	=55	=55	=55	=55	=55	=55	=55	=55	=55	=55	=55	=55
!	!	!	!	!	!	!	!LO:PB:g=original	!	!LO:PB:g=original	!	!	!	!	!	!	!
4C/	3	.	4c\	.	4e/	.	4cc\	.	16e/LL	.	1r	.	1r	.	1r	.
.	.	.	.	.	.	.	.	.	16c/	.	.	.	.	.	.	.
.	.	.	.	.	.	.	.	.	16d/	.	.	.	.	.	.	.
.	.	.	.	.	.	.	.	.	16e/JJ	.	.	.	.	.	.	.
4r	.	.	4r	.	4r	.	4r	.	16f/LL	.	.	.	.	.	.	.
.	.	.	.	.	.	.	.	.	16g/	.	.	.	.	.	.	.
.	.	.	.	.	.	.	.	.	16a/	.	.	.	.	.	.	.
.	.	.	.	.	.	.	.	.	16bn/JJ	.	.	.	.	.	.	.
2r	.	.	2r	.	2r	.	2r	.	16cc\LL	.	.	.	.	.	.	.
.	.	.	.	.	.	.	.	.	16dd\	.	.	.	.	.	.	.
.	.	.	.	.	.	.	.	.	16ee\	.	.	.	.	.	.	.
.	.	.	.	.	.	.	.	.	16ff\JJ	.	.	.	.	.	.	.
.	.	.	.	.	.	.	.	.	8gg\L	.	.	.	.	.	.	.
.	.	.	.	.	.	.	.	.	8gg\J	.	.	.	.	.	.	.
=56	=56	=56	=56	=56	=56	=56	=56	=56	=56	=56	=56	=56	=56	=56	=56	=56
4C/	5 3	.	4c\	.	8G/L	.	((2f/ 2b-/	.	2ccc\	.	1r	.	1r	.	1r	.
.	.	.	.	.	8A/	.	.	.	.	.	.	.	.	.	.	.
4r	.	.	4r	.	8A/	.	.	.	.	.	.	.	.	.	.	.
.	.	.	.	.	8B-X/J	.	.	.	.	.	.	.	.	.	.	.
4C/	7- 5	.	4c\	.	8B-/L	.	2g/)) 2b-/	.	2B-XT/	.	.	.	.	.	.	.
.	.	.	.	.	8A/	.	.	.	.	.	.	.	.	.	.	.
4r	.	.	4r	.	8A/	.	.	.	.	.	.	.	.	.	.	.
.	.	.	.	.	8G/J	.	.	.	.	.	.	.	.	.	.	.
=57	=57	=57	=57	=57	=57	=57	=57	=57	=57	=57	=57	=57	=57	=57	=57	=57
4FF/	3	.	4f\	.	4A/	.	4f/	.	16A/LL	.	1r	.	1r	.	1r	.
.	.	.	.	.	.	.	.	.	16c/	.	.	.	.	.	.	.
.	.	.	.	.	.	.	.	.	16A/	.	.	.	.	.	.	.
.	.	.	.	.	.	.	.	.	16f/JJ	.	.	.	.	.	.	.
4r	.	.	4r	.	4r	.	4r	.	16c/LL	.	.	.	.	.	.	.
.	.	.	.	.	.	.	.	.	16a/	.	.	.	.	.	.	.
.	.	.	.	.	.	.	.	.	16f/	.	.	.	.	.	.	.
.	.	.	.	.	.	.	.	.	16cc/JJ	.	.	.	.	.	.	.
2r	.	.	2r	.	2r	.	2r	.	16a\LL	.	.	.	.	.	.	.
.	.	.	.	.	.	.	.	.	16ff\	.	.	.	.	.	.	.
.	.	.	.	.	.	.	.	.	16cc\	.	.	.	.	.	.	.
.	.	.	.	.	.	.	.	.	16aa\JJ	.	.	.	.	.	.	.
.	.	.	.	.	.	.	.	.	16ff\LL	.	.	.	.	.	.	.
.	.	.	.	.	.	.	.	.	16ccc\	.	.	.	.	.	.	.
.	.	.	.	.	.	.	.	.	16bbn\	.	.	.	.	.	.	.
.	.	.	.	.	.	.	.	.	16aa\JJ	.	.	.	.	.	.	.
=58	=58	=58	=58	=58	=58	=58	=58	=58	=58	=58	=58	=58	=58	=58	=58	=58
4C\	.	.	4e\	.	8r	.	4cc\	.	16gg\LL	.	1r	.	1r	.	1r	.
.	.	.	.	.	.	.	.	.	16aa\	.	.	.	.	.	.	.
.	.	.	.	.	8g/	.	.	.	16bbn\	.	.	.	.	.	.	.
.	.	.	.	.	.	.	.	.	16ccc\JJ	.	.	.	.	.	.	.
4F\	6	.	4f\	.	8r	.	4dd\	.	16bb\LL	.	.	.	.	.	.	.
.	.	.	.	.	.	.	.	.	16aa\	.	.	.	.	.	.	.
.	.	.	.	.	8f/	.	.	.	16gg\	.	.	.	.	.	.	.
.	.	.	.	.	.	.	.	.	16ff\JJ	.	.	.	.	.	.	.
4G\	4	.	4g\	.	4g/	.	4cc\	.	4ee\	.	.	.	.	.	.	.
4GG/	3n	.	4G/	.	4G/	.	4bn\	.	4ddT\	.	.	.	.	.	.	.
=59	=59	=59	=59	=59	=59	=59	=59	=59	=59	=59	=59	=59	=59	=59	=59	=59
4C/	.	.	4c\	.	4c/	.	4cc\	.	4cc\	.	1r	.	1r	.	1r	.
4r	.	.	4r	.	4cc\	.	4ee\	.	2gg\	.	.	.	.	.	.	.
2r	.	.	2r	.	4bn\	.	4dd\	.	.	.	.	.	.	.	.	.
.	.	.	.	.	4a\	.	4cc\	.	4ff\	.	.	.	.	.	.	.
=60	=60	=60	=60	=60	=60	=60	=60	=60	=60	=60	=60	=60	=60	=60	=60	=60
!	!	!	!LO:PB:g=original	!	!	!	!	!	!	!	!	!	!	!	!	!
!LO:TX:a:t=2	!	!	!LO:TX:a:t=2	!	!	!	!	!	!	!	!	!	!	!	!	!
0r	.	.	0r	.	4g/	.	4bn\	.	4ee\	.	1r	.	1r	.	1r	.
.	.	.	.	.	4f/	.	4a\	.	4dd\	.	.	.	.	.	.	.
.	.	.	.	.	4e/	.	4g\	.	4cc#X\	.	.	.	.	.	.	.
.	.	.	.	.	4g/	.	4cc#X\	.	4ee\	.	.	.	.	.	.	.
=61	=61	=61	=61	=61	=61	=61	=61	=61	=61	=61	=61	=61	=61	=61	=61	=61
!	!	!	!	!	!LO:PB:g=original	!	!	!	!LO:PB:g=original	!	!	!	!	!	!	!
.	.	.	.	.	8f/L	.	8a\L	.	(16dd\LL	.	1r	.	1r	.	1r	.
.	.	.	.	.	.	.	.	.	16ee\)	.	.	.	.	.	.	.
.	.	.	.	.	8g/	.	8b-\	.	(16cc#X\	.	.	.	.	.	.	.
.	.	.	.	.	.	.	.	.	16ee\JJ)	.	.	.	.	.	.	.
.	.	.	.	.	8f/	.	8a\	.	(16dd\LL	.	.	.	.	.	.	.
.	.	.	.	.	.	.	.	.	16ee\)	.	.	.	.	.	.	.
.	.	.	.	.	8g/J	.	8b-\J	.	(16cc#\	.	.	.	.	.	.	.
.	.	.	.	.	.	.	.	.	16ee\JJ)	.	.	.	.	.	.	.
.	.	.	.	.	8f/L	.	8a/L	.	16dd\LL	.	.	.	.	.	.	.
.	.	.	.	.	.	.	.	.	16ff\	.	.	.	.	.	.	.
.	.	.	.	.	8c#X/	.	8g/	.	16ee\	.	.	.	.	.	.	.
.	.	.	.	.	.	.	.	.	16gg\JJ	.	.	.	.	.	.	.
.	.	.	.	.	8d/	.	8f/	.	16ff\LL	.	.	.	.	.	.	.
.	.	.	.	.	.	.	.	.	16aa\	.	.	.	.	.	.	.
.	.	.	.	.	8g/J	.	8b-/J	.	16gg\	.	.	.	.	.	.	.
.	.	.	.	.	.	.	.	.	16ff\JJ	.	.	.	.	.	.	.
=62	=62	=62	=62	=62	=62	=62	=62	=62	=62	=62	=62	=62	=62	=62	=62	=62
4GG/	6 4	.	4c\	.	4e/	.	4cc\	.	(16ee\LL	.	1r	.	1r	.	1r	.
.	.	.	.	.	.	.	.	.	16ff\	.	.	.	.	.	.	.
.	.	.	.	.	.	.	.	.	16ff#X\	.	.	.	.	.	.	.
.	.	.	.	.	.	.	.	.	16gg\JJ)	.	.	.	.	.	.	.
4r	.	.	4r	.	4r	.	4r	.	(16cc\LL	.	.	.	.	.	.	.
.	.	.	.	.	.	.	.	.	16dd\	.	.	.	.	.	.	.
.	.	.	.	.	.	.	.	.	16dd#X\	.	.	.	.	.	.	.
.	.	.	.	.	.	.	.	.	16ee\JJ)	.	.	.	.	.	.	.
2r	.	.	2r	.	2r	.	2r	.	(16g/LL	.	.	.	.	.	.	.
.	.	.	.	.	.	.	.	.	16a/	.	.	.	.	.	.	.
.	.	.	.	.	.	.	.	.	16bn/	.	.	.	.	.	.	.
.	.	.	.	.	.	.	.	.	16cc/JJ)	.	.	.	.	.	.	.
.	.	.	.	.	.	.	.	.	16e/LL	.	.	.	.	.	.	.
.	.	.	.	.	.	.	.	.	16f/	.	.	.	.	.	.	.
.	.	.	.	.	.	.	.	.	16f#X/	.	.	.	.	.	.	.
.	.	.	.	.	.	.	.	.	16g/JJ	.	.	.	.	.	.	.
=63	=63	=63	=63	=63	=63	=63	=63	=63	=63	=63	=63	=63	=63	=63	=63	=63
!LO:PB:g=original	!	!	!	!	!	!	!	!	!	!	!	!	!	!	!	!
!LO:TX:a:t=1	!	!	!LO:TX:a:t=1	!	!LO:TX:a:t=1	!	!LO:TX:a:t=1	!	!	!	!	!	!	!	!	!
1r	.	.	1r	.	1r	.	1r	.	8c/L	.	1r	.	1r	.	1r	.
.	.	.	.	.	.	.	.	.	16d/L	.	.	.	.	.	.	.
.	.	.	.	.	.	.	.	.	16e/JJ	.	.	.	.	.	.	.
.	.	.	.	.	.	.	.	.	16f/LL	.	.	.	.	.	.	.
.	.	.	.	.	.	.	.	.	16g/	.	.	.	.	.	.	.
.	.	.	.	.	.	.	.	.	16a/	.	.	.	.	.	.	.
.	.	.	.	.	.	.	.	.	16bn/JJ	.	.	.	.	.	.	.
.	.	.	.	.	.	.	.	.	(16cc\LL	.	.	.	.	.	.	.
.	.	.	.	.	.	.	.	.	16dd\	.	.	.	.	.	.	.
.	.	.	.	.	.	.	.	.	16ee\	.	.	.	.	.	.	.
.	.	.	.	.	.	.	.	.	16ff\JJ)	.	.	.	.	.	.	.
.	.	.	.	.	.	.	.	.	(16gg\LL	.	.	.	.	.	.	.
.	.	.	.	.	.	.	.	.	16aa\	.	.	.	.	.	.	.
.	.	.	.	.	.	.	.	.	16bbn\	.	.	.	.	.	.	.
.	.	.	.	.	.	.	.	.	16ccc\JJ)	.	.	.	.	.	.	.
=64	=64	=64	=64	=64	=64	=64	=64	=64	=64	=64	=64	=64	=64	=64	=64	=64
4G\	6 4	.	8g\L	.	8r	.	8r	.	2G/	.	1r	.	1r	.	1r	.
.	.	.	8c\	.	8e/L	.	8g/L	.	.	.	.	.	.	.	.	.
4r	.	.	8c\	.	8e/	.	8g/	.	.	.	.	.	.	.	.	.
.	.	.	8c\J	.	8e/J	.	8g/J	.	.	.	.	.	.	.	.	.
4GG/	5 3	.	8r	.	8r	.	8r	.	2ddT\	.	.	.	.	.	.	.
*	*	*	*Xtremolo	*	*	*	*	*	*	*	*	*	*	*	*	*
.	.	.	8Bn\L	.	8f/L	.	8g/L 8bn/	.	.	.	.	.	.	.	.	.
4r	.	.	8B\	.	8f/	.	8g/ 8b/	.	.	.	.	.	.	.	.	.
.	.	.	8B\J	.	8f/J	.	8g/J 8b/	.	.	.	.	.	.	.	.	.
=65	=65	=65	=65	=65	=65	=65	=65	=65	=65	=65	=65	=65	=65	=65	=65	=65
!	!	!	!	!	!	!	!	!	!LO:PB:g=original	!	!	!	!	!	!	!
1C/	5 3	.	1c\	.	4e/	<	1g/ 1b-/	.	4cc\	.	1r	.	1r	.	1r	.
.	6- 4	.	.	.	4f/	.	.	.	(16bn\LL	f	.	.	.	.	.	.
.	.	.	.	.	.	[	.	.	16ff\)	.	.	.	.	.	.	.
.	.	.	.	.	.	.	.	.	(16b\	.	.	.	.	.	.	.
.	.	.	.	.	.	.	.	.	16dd\JJ)	.	.	.	.	.	.	.
.	5 3	.	.	.	4e/	>	.	.	8cc\L	.	.	.	.	.	.	.
.	.	.	.	.	.	.	.	.	8gg\J	.	.	.	.	.	.	.
.	6- 4	.	.	.	4f/	]	.	.	16b\LL	.	.	.	.	.	.	.
.	.	.	.	.	.	.	.	.	16ff\	.	.	.	.	.	.	.
.	.	.	.	.	.	.	.	.	16b\	.	.	.	.	.	.	.
.	.	.	.	.	.	.	.	.	16dd\JJ	.	.	.	.	.	.	.
=66	=66	=66	=66	=66	=66	=66	=66	=66	=66	=66	=66	=66	=66	=66	=66	=66
!	!	!	!	!	!	!	!	!	!	!	!LO:PB:g=original	!	!	!	!	!
!	!	!	!	!	!	!	!LO:SIC:s:v=2bn	!	!	!	!	!	!	!	!	!
*	*	*	*	*	*2/left	*	*	*	*	*	*	*	*	*	*	*
!	!	!	!	!	!LO:TX:t=P:laska z lewej strony:problem	!	!	!	!	!	!	!	!	!	!	!
4C/	6- 4	.	4c/	.	2f/	.	2b-\	.	2dd\	.	2r	.	1r	.	1r	.
4GG/	.	.	4G/	.	.	.	.	.	.	.	.	.	.	.	.	.
.	.	.	.	.	.	.	.	.	16qqee/LL	.	.	.	.	.	.	.
.	.	.	.	.	.	.	.	.	16qqdd/JJ	.	.	.	.	.	.	.
4CC/	5 3	.	4C/	.	4e/	.	4cc\	.	4cc\	.	4r	.	.	.	.	.
4r	.	.	4r	.	4r	.	4r	.	4r	.	8G/	Be-	.	.	.	.
.	.	.	.	.	.	.	.	.	.	.	8G/	-ne	.	.	.	.
=67	=67	=67	=67	=67	=67	=67	=67	=67	=67	=67	=67	=67	=67	=67	=67	=67
!	!	!	!	!	!	!	!LO:PB:g=original	!	!	!	!	!	!	!	!	!
!	!	!	!	!	!	!	!LO:SIC:o:v=zapisane i wykreślone takty	!	!LO:TX:a:t=1	!	!	!	!	!	!	!
4C/	3	.	4c\	.	8r	.	8r	.	1r	.	2c\	di-	1r	.	1r	.
.	.	.	.	.	8e/L	.	8g/L	.	.	.	.	.	.	.	.	.
4r	.	.	4r	.	8e/	.	8g/	.	.	.	.	.	.	.	.	.
.	.	.	.	.	8e/J	.	8g/J	.	.	.	.	.	.	.	.	.
4C/	3	.	4c\	.	8r	.	8r	.	.	.	4c\	-ctus	.	.	.	.
!	!	!	!	!	!LO:SIC:o:t:v=znak powtórzenia grupy	!	!	!	!	!	!	!	!	!	!	!
*	*	*	*	*	*rep	*	*	*	*	*	*	*	*	*	*	*
.	.	.	.	.	8e/L	.	8g/L	.	.	.	.	.	.	.	.	.
4r	.	.	4r	.	8e/	.	8g/	.	.	.	4c\	qui	.	.	.	.
.	.	.	.	.	8e/J	.	8g/J	.	.	.	.	.	.	.	.	.
*	*	*	*	*	*Xrep	*	*	*	*	*	*	*	*	*	*	*
=68	=68	=68	=68	=68	=68	=68	=68	=68	=68	=68	=68	=68	=68	=68	=68	=68
4C/	4 2	.	4c\	.	8r	.	8r	.	2r	.	(16d\LL	ve-	1r	.	1r	.
.	.	.	.	.	.	.	.	.	.	.	16e\	.	.	.	.	.
.	.	.	.	.	8f/L	.	8g/L	.	.	.	16f\	.	.	.	.	.
.	.	.	.	.	.	.	.	.	.	.	16e\JJ)	.	.	.	.	.
4r	.	.	4r	.	8f/	.	8g/	.	.	.	4d\	-nit	.	.	.	.
.	.	.	.	.	8f/J	.	8g/J	.	.	.	.	.	.	.	.	.
4C/	_ _	.	4c\	.	8r	.	8r	.	(16dd\LL	.	4r	.	.	.	.	.
.	.	.	.	.	.	.	.	.	16ee\	.	.	.	.	.	.	.
*	*	*	*	*	*rep	*	*	*	*	*	*	*	*	*	*	*
!	!	!	!	!	!LO:SIC:o:t:v=znak powtórzenia grupy	!	!	!	!	!	!	!	!	!	!	!
.	.	.	.	.	8f/L	.	8g/L	.	16ff\	.	.	.	.	.	.	.
.	.	.	.	.	.	.	.	.	16ee\JJ)	.	.	.	.	.	.	.
4r	x x	.	4r	.	8f/	.	8g/	.	4dd\	.	8d\	be-	.	.	.	.
.	.	.	.	.	8f/J	.	8g/J	.	.	.	8d\	-ne	.	.	.	.
*	*	*	*	*	*Xrep	*	*	*	*	*	*	*	*	*	*	*
=69	=69	=69	=69	=69	=69	=69	=69	=69	=69	=69	=69	=69	=69	=69	=69	=69
!	!	!	!	!	!	!	!	!	!LO:TX:a:t=1	!	!	!	!	!	!	!
4C/	5 3	.	4c\	.	8r	.	8r	.	1r	.	2e\	di-	1r	.	1r	.
.	.	.	.	.	8g/L 8b-/	.	8cc\L	.	.	.	.	.	.	.	.	.
4r	.	.	4r	.	8g/ 8b-/	.	8cc\	.	.	.	.	.	.	.	.	.
.	.	.	.	.	8g/J 8b-/	.	8cc\J	.	.	.	.	.	.	.	.	.
4C/	_ _	.	4c\	.	8r	.	8r	.	.	.	(8f\L	-ctus	.	.	.	.
!	!	!	!	!	!LO:SIC:o:t:v=znak powtórzenia grupy	!	!	!	!	!	!	!	!	!	!	!
*	*	*	*	*	*rep	*	*	*	*	*	*	*	*	*	*	*
.	.	.	.	.	8g/L 8b-/	.	8cc\L	.	.	.	8e\J)	.	.	.	.	.
4r	x x	.	4r	.	8g/ 8b-/	.	8cc\	.	.	.	(8d\L	qui	.	.	.	.
.	.	.	.	.	8g/J 8b-/	.	8cc\J	.	.	.	8c\J)	.	.	.	.	.
*	*	*	*	*	*Xrep	*	*	*	*	*	*	*	*	*	*	*
=70	=70	=70	=70	=70	=70	=70	=70	=70	=70	=70	=70	=70	=70	=70	=70	=70
!	!	!	!	!	!LO:PB:g=original	!	!LO:PB:g=original	!	!	!	!	!	!	!	!	!
4C/	6 4	.	4c\	.	8r	.	8r	.	2r	.	4f\	ve-	1r	.	1r	.
.	.	.	.	.	8a/L	.	8cc\L	.	.	.	.	.	.	.	.	.
4r	.	.	4r	.	8a/	.	8cc\	.	.	.	4c\	-nit	.	.	.	.
.	.	.	.	.	8a/J	.	8cc\J	.	.	.	.	.	.	.	.	.
4C/	_ _	.	4c\	.	8r	.	8r	.	(16ff\LL	.	4r	.	.	.	.	.
.	.	.	.	.	.	.	.	.	16gg\	.	.	.	.	.	.	.
.	.	.	.	.	8a/L	.	8cc\L	.	16aa\	.	.	.	.	.	.	.
.	.	.	.	.	.	.	.	.	16gg\JJ)	.	.	.	.	.	.	.
4r	x x	.	4r	.	8a/	.	8cc\	.	4ff\	.	4c\	in	.	.	.	.
.	.	.	.	.	8a/J	.	8cc\J	.	.	.	.	.	.	.	.	.
=71	=71	=71	=71	=71	=71	=71	=71	=71	=71	=71	=71	=71	=71	=71	=71	=71
!	!	!	!	!	!	!	!	!	!LO:TX:a:t=5	!	!	!	!	!	!	!
8C/	7- 5	.	8c\	.	8r	.	8r	.	00r	.	((4B-\	no-	1r	.	1r	.
8r	.	.	8r	.	8g/	.	8b-\	.	.	.	.	.	.	.	.	.
8C/	6 4	.	8c\	.	8r	.	8r	.	.	.	4A\))	.	.	.	.	.
8r	.	.	8r	.	8f/	.	8a/	.	.	.	.	.	.	.	.	.
8C/	5 3	.	8c\	.	8r	.	8r	.	.	.	4G\	-mi-	.	.	.	.
8r	.	.	8r	.	8e/	.	8g/	.	.	.	.	.	.	.	.	.
8C/	4 2	.	8c\	.	8r	.	8r	.	.	.	4F\	-ne	.	.	.	.
8r	.	.	8r	.	8d/	.	8f/	.	.	.	.	.	.	.	.	.
=72	=72	=72	=72	=72	=72	=72	=72	=72	=72	=72	=72	=72	=72	=72	=72	=72
!LO:PB:g=original	!	!	!LO:PB:g=original	!	!	!	!	!	!	!	!	!	!	!	!	!
8C/	3	.	8c\	.	8r	.	8r	.	.	.	4E/	Do-	1r	.	1r	.
8r	.	.	8r	.	8c/	.	8e/	.	.	.	.	.	.	.	.	.
8C/	4 2	.	8c\	.	8r	.	8r	.	.	.	4F/	-mi-	.	.	.	.
8r	.	.	8r	.	8d/	.	8f/	.	.	.	.	.	.	.	.	.
8C/	5 3	.	8c\	.	8r	.	8r	.	.	.	4G/	-ne	.	.	.	.
8r	.	.	8r	.	8e/	.	8g/	.	.	.	.	.	.	.	.	.
8C/	6 4	.	8c\	.	8r	.	8r	.	.	.	4A/	in	.	.	.	.
8r	.	.	8r	.	8f/	.	8a/	.	.	.	.	.	.	.	.	.
=73	=73	=73	=73	=73	=73	=73	=73	=73	=73	=73	=73	=73	=73	=73	=73	=73
!	!	!	!	!	!	!	!	!	!	!	!LO:PB:g=original	!	!	!	!	!
4E\	6 #	.	4e\	.	8r	.	8r	.	.	.	4B-\	no-	1r	.	1r	.
.	.	.	.	.	(8g/L	.	(8b-\L	.	.	.	.	.	.	.	.	.
4F\	3	.	4f\	.	8f/	.	8a\	.	.	.	8A\	-mi-	.	.	.	.
.	.	.	.	.	8a/J)	.	8cc\J)	.	.	.	8c\	-ne	.	.	.	.
4A\	3	.	4A/	.	4a/	.	4cc\	.	.	.	(8f\L	Do-	.	.	.	.
.	.	.	.	.	.	.	.	.	.	.	8c\J)	.	.	.	.	.
!	!	!	!	!LO:HP:a	!	!	!	!	!	!	!	!	!	!	!	!
8B-\L	6 3	.	8B-/L	<	(8g/L	.	(8b-\L	.	.	.	(8B-\L	-mi-	.	.	.	.
8Bn\J	5 3	.	8Bn/J	[	8f/J)	.	8a\J)	.	.	.	8A\J)	.	.	.	.	.
=74	=74	=74	=74	=74	=74	=74	=74	=74	=74	=74	=74	=74	=74	=74	=74	=74
!	!	!	!LO:SIC:o:v=f zapisane fo	!	!LO:SIC:o:v=f zapisane fo	!	!	!	!	!	!	!	!	!	!	!
4c\	5	.	4c\	f	4e/	f	4g/	.	.	.	4G/	-ni	1r	.	1r	.
4C/	.	.	4c\	.	4G/ 4e/	.	4c/	.	.	.	4r	.	.	.	.	.
2r	.	.	2r	.	2r	.	2r	.	.	.	4G/	be-	.	.	.	.
.	.	.	.	.	.	.	.	.	.	.	4G/	-ne	.	.	.	.
=75	=75	=75	=75	=75	=75	=75	=75	=75	=75	=75	=75	=75	=75	=75	=75	=75
4C/	5 3	.	8r	p	8r	p	8r	.	1r	.	2c\	di-	1r	.	1r	.
.	.	.	8c\L	.	8e/L	.	8g/L	.	.	.	.	.	.	.	.	.
4r	.	.	8c\	.	8e/	.	8g/	.	.	.	.	.	.	.	.	.
.	.	.	8c\J	.	8e/J	.	8g/J	.	.	.	.	.	.	.	.	.
4C/	_ _	.	8r	.	8r	.	8r	.	.	.	4c\	-ctus	.	.	.	.
!	!	!	!	!	!LO:SIC:o:t:v=znak powtórzenia grupy	!	!	!	!	!	!	!	!	!	!	!
*	*	*	*	*	*rep	*	*	*	*	*	*	*	*	*	*	*
.	.	.	8c\L	.	8e/L	.	8g/L	.	.	.	.	.	.	.	.	.
4r	x x	.	8c\	.	8e/	.	8g/	.	.	.	4c\	qui	.	.	.	.
.	.	.	8c\J	.	8e/J	.	8g/J	.	.	.	.	.	.	.	.	.
*	*	*	*	*	*Xrep	*	*	*	*	*	*	*	*	*	*	*
=76	=76	=76	=76	=76	=76	=76	=76	=76	=76	=76	=76	=76	=76	=76	=76	=76
4C/	7 2	.	8r	.	8r	.	8r	.	2r	.	(16d\LL	ve-	1r	.	1r	.
.	.	.	.	.	.	.	.	.	.	.	16e\	.	.	.	.	.
.	.	.	8c\L	.	8f/L	.	8g/L	.	.	.	16f\	.	.	.	.	.
.	.	.	.	.	.	.	.	.	.	.	16e\JJ)	.	.	.	.	.
4r	.	.	8c\	.	8f/	.	8g/	.	.	.	4d\	-nit	.	.	.	.
.	.	.	8c\J	.	8f/J	.	8g/J	.	.	.	.	.	.	.	.	.
4C/	_ _	.	8r	.	8r	.	8r	.	16ff\LL	.	4r	.	.	.	.	.
.	.	.	.	.	.	.	.	.	16ee\	.	.	.	.	.	.	.
!	!	!	!	!	!LO:SIC:o:t:v=znak powtórzenia grupy	!	!	!	!	!	!	!	!	!	!	!
*	*	*	*	*	*rep	*	*	*	*	*	*	*	*	*	*	*
.	.	.	8c\L	.	8f/L	.	8g/L	.	16dd\	.	.	.	.	.	.	.
.	.	.	.	.	.	.	.	.	16ee\JJ	.	.	.	.	.	.	.
4r	x x	.	8c\	.	8f/	.	8g/	.	4dd\	.	8d\	be-	.	.	.	.
.	.	.	8c\J	.	8f/J	.	8g/J	.	.	.	8d\	-ne	.	.	.	.
*	*	*	*	*	*Xrep	*	*	*	*	*	*	*	*	*	*	*
=77	=77	=77	=77	=77	=77	=77	=77	=77	=77	=77	=77	=77	=77	=77	=77	=77
!	!	!	!	!	!	!	!	!	!LO:TX:a:t=1	!	!	!	!	!	!	!
4C/	5 3	.	8r	.	8r	.	8r	.	1r	.	2e\	di-	1r	.	1r	.
.	.	.	8c\L	.	8g/L 8b-/	.	8cc\L	.	.	.	.	.	.	.	.	.
4r	.	.	8c\	.	8g/ 8b-/	.	8cc\	.	.	.	.	.	.	.	.	.
.	.	.	8c\J	.	8g/J 8b-/	.	8cc\J	.	.	.	.	.	.	.	.	.
4C/	_ _	.	8r	.	8r	.	8r	.	.	.	(8f\L	-ctus	.	.	.	.
!	!	!	!	!	!LO:SIC:o:t:v=znak powtórzenia grupy	!	!	!	!	!	!	!	!	!	!	!
*	*	*	*	*	*rep	*	*	*	*	*	*	*	*	*	*	*
.	.	.	8c\L	.	8g/L 8b-/	.	8cc\L	.	.	.	8e\J)	.	.	.	.	.
4r	x x	.	8c\	.	8g/ 8b-/	.	8cc\	.	.	.	(8d\L	qui	.	.	.	.
.	.	.	8c\J	.	8g/J 8b-/	.	8cc\J	.	.	.	8c\J)	.	.	.	.	.
*	*	*	*	*	*Xrep	*	*	*	*	*	*	*	*	*	*	*
=78	=78	=78	=78	=78	=78	=78	=78	=78	=78	=78	=78	=78	=78	=78	=78	=78
!	!	!	!	!	!LO:PB:g=original	!	!	!	!	!	!	!	!	!	!	!
!	!	!	!	!	!	!	!LO:SIC:o:t:v=brak jednego taktu	!	!	!	!	!	!	!	!	!
4C/	6 4	.	8r	.	8r	.	1ryy	.	2r	.	4f\	ve-	1r	.	1r	.
.	.	.	8c\L	.	8a/L	.	.	.	.	.	.	.	.	.	.	.
4r	.	.	8c\	.	8a/	.	.	.	.	.	4c\	-nit	.	.	.	.
.	.	.	8c\J	.	8a/J	.	.	.	.	.	.	.	.	.	.	.
4C/	.	.	8r	.	8r	.	.	.	16aa\LL	.	4r	.	.	.	.	.
.	.	.	.	.	.	.	.	.	16gg\	.	.	.	.	.	.	.
!	!	!	!	!	!LO:SIC:o:t:v=znak powtórzenia grupy	!	!	!	!	!	!	!	!	!	!	!
*	*	*	*	*	*rep	*	*	*	*	*	*	*	*	*	*	*
.	.	.	8c\L	.	8a/L	.	.	.	16ff\	.	.	.	.	.	.	.
.	.	.	.	.	.	.	.	.	16gg\JJ	.	.	.	.	.	.	.
4r	.	.	8c\	.	8a/	.	.	.	4ff\	.	4c\	in	.	.	.	.
.	.	.	8c\J	.	8a/J	.	.	.	.	.	.	.	.	.	.	.
*	*	*	*	*	*Xrep	*	*	*	*	*	*	*	*	*	*	*
=79	=79	=79	=79	=79	=79	=79	=79	=79	=79	=79	=79	=79	=79	=79	=79	=79
!	!	!	!	!	!	!	!LO:PB:g=original	!	!LO:PB:g=original	!	!LO:PB:g=original	!	!	!	!	!
4G\	n	.	8r	.	8r	.	8r	.	2r	.	(8Bn\L	no-	1r	.	1r	.
.	.	.	8Bn\L	.	8d/L	.	8bn\L	.	.	.	8d\J)	.	.	.	.	.
4r	.	.	8B\	.	8d/	.	8b\	.	.	.	(8d\L	-mi-	.	.	.	.
.	.	.	8B\J	.	8d/J	.	8b\J	.	.	.	8e\J)	.	.	.	.	.
4GG/	7 5	.	8r	.	8r	.	8r	.	16bn\LL	.	4f\	-ne	.	.	.	.
.	.	.	.	.	.	.	.	.	16cc\	.	.	.	.	.	.	.
!	!	!	!	!	!LO:SIC:o:t:v=znak powtórzenia grupy	!	!	!	!	!	!	!	!	!	!	!
*	*	*	*	*	*rep	*	*	*	*	*	*	*	*	*	*	*
.	.	.	8Bn\L	.	8d/L	.	8b\L	.	16dd\	.	.	.	.	.	.	.
.	.	.	.	.	.	.	.	.	16ee\JJ	.	.	.	.	.	.	.
4r	.	.	8B\	.	8d/	.	8b\	.	4ff\	.	8r	.	.	.	.	.
.	.	.	8B\J	.	8d/J	.	8b\J	.	.	.	8B\	in	.	.	.	.
*	*	*	*	*	*Xrep	*	*	*	*	*	*	*	*	*	*	*
=80	=80	=80	=80	=80	=80	=80	=80	=80	=80	=80	=80	=80	=80	=80	=80	=80
!	!	!	!LO:PB:g=original	!	!	!	!	!	!	!	!	!	!	!	!	!
4C/	3	.	8r	.	8r	.	8r	.	2r	.	(8c\L	no-	1r	.	1r	.
.	.	.	8G/L	.	8c/L	.	8g/L	.	.	.	8e\J)	.	.	.	.	.
4r	.	.	8G/	.	8c/	.	8g/	.	.	.	(8e\L	-mi-	.	.	.	.
.	.	.	8G/J	.	8c/J	.	8g/J	.	.	.	8g\J)	.	.	.	.	.
4C/	_ _	.	8r	.	8r	.	8r	.	(16cc\LL	.	4g\	-ne	.	.	.	.
.	.	.	.	.	.	.	.	.	16dd\	.	.	.	.	.	.	.
!	!	!	!	!	!LO:SIC:o:t:v=znak powtórzenia grupy	!	!	!	!	!	!	!	!	!	!	!
*	*	*	*	*	*rep	*	*	*	*	*	*	*	*	*	*	*
.	.	.	8G/L	.	8c/L	.	8g/L	.	16ee\	.	.	.	.	.	.	.
.	.	.	.	.	.	.	.	.	16ff'\JJ)	.	.	.	.	.	.	.
4r	x x	.	8G/	.	8c/	.	8g/	.	4gg\	.	8r	.	.	.	.	.
.	.	.	8G/J	.	8c/J	.	8g/J	.	.	.	8e\	in	.	.	.	.
*	*	*	*	*	*Xrep	*	*	*	*	*	*	*	*	*	*	*
=81	=81	=81	=81	=81	=81	=81	=81	=81	=81	=81	=81	=81	=81	=81	=81	=81
!LO:TX:a:t=Ad libit.	!	!	!	!	!	!	!	!	!	!	!	!	!	!	!	!
4G\	7 5	.	4G;/	.	4g/ 4bn/	.	4dd;\	.	4bbn;\	.	4f;\	no-	4r;	.	4r;	.
!	!	!	!LO:TX:a:t=Ad libitu	!	!LO:TX:a:t=ad libitum	!	!LO:TX:a:t=Ad libitum.	!	!LO:TX:a:t=Ad libitum	!	!LO:TX:a:t=ad libitum	!	!LO:TX:a:t=Ad libitum	!	!LO:TX:a:t=Ad libitum	!
4r	.	.	4r	.	4r	.	4r	.	4r	.	8e\	-mi-	4r	.	4r	.
.	.	.	.	.	.	.	.	.	.	.	8d\	-ne	.	.	.	.
2r	.	.	2r	.	2r	.	2r	.	2r	.	8d\L	Do-	2r	.	2r	.
.	.	.	.	.	.	.	.	.	.	.	8c\J	.	.	.	.	.
.	.	.	.	.	.	.	.	.	.	.	8qqd/	.	.	.	.	.
.	.	.	.	.	.	.	.	.	.	.	8c\L	-mi-	.	.	.	.
.	.	.	.	.	.	.	.	.	.	.	8Bn\J	.	.	.	.	.
=82	=82	=82	=82	=82	=82	=82	=82	=82	=82	=82	=82	=82	=82	=82	=82	=82
!LO:PB:g=original	!	!	!	!	!	!	!	!	!	!	!	!	!	!	!	!
!	!	!	!	!	!LO:SIC:o:t:v=laska z prawej strony	!	!	!	!	!	!	!	!	!	!	!
*	*	*	*2\left	*	*	*	*	*	*	*	*	*	*	*	*	*
2.C;/	8 5	.	2.c;\	.	2.g;\ 2.cc\	.	2.ee;\	.	2.ccc;\	.	2.c;\	-ni	2.c;/	.	2.g;\	.
4r	.	.	4r	.	4r	.	4r	.	4r	.	8c\	be-	4r	.	4r	.
.	.	.	.	.	.	.	.	.	.	.	8c\	-ne-	.	.	.	.
=83	=83	=83	=83	=83	=83	=83	=83	=83	=83	=83	=83	=83	=83	=83	=83	=83
!	!	!	!	!	!	!	!	!	!LO:TX:a:t=4	!	!	!	!LO:TX:a:t=40	!	!LO:TX:a:t=40	!
4F\	3	.	4f\	.	8r	.	8r	.	00r	.	2f\	-di-	1r	.	1r	.
.	.	.	.	.	8f/L	.	8a/L	.	.	.	.	.	.	.	.	.
4r	.	.	4r	.	8f/	.	8a/	.	.	.	.	.	.	.	.	.
.	.	.	.	.	8f/J	.	8a/J	.	.	.	.	.	.	.	.	.
4C/	5 3	.	4e\	.	8r	.	8r	.	.	.	4c\	-ctus	.	.	.	.
.	.	.	.	.	8e/L	.	8g/L	.	.	.	.	.	.	.	.	.
4r	.	.	4r	.	8e/	.	8g/	.	.	.	4B-\	qui	.	.	.	.
.	.	.	.	.	8e/J	.	8g/J	.	.	.	.	.	.	.	.	.
=84	=84	=84	=84	=84	=84	=84	=84	=84	=84	=84	=84	=84	=84	=84	=84	=84
4F\	5 3	.	4f\	.	8r	.	8r	.	.	.	(4.A\	ve-	1r	.	1r	.
.	.	.	.	.	8f/L	.	8cc\L	.	.	.	.	.	.	.	.	.
4r	.	.	4r	.	8f/	.	8cc\	.	.	.	.	.	.	.	.	.
.	.	.	.	.	8c/J	.	8cc\J	.	.	.	8G\)	.	.	.	.	.
4F\	_ _	.	4f\	.	8r	.	8r	.	.	.	4F\	-nit	.	.	.	.
.	.	.	.	.	8A/L	.	8cc\L	.	.	.	.	.	.	.	.	.
4r	x	.	4r	.	8f/	.	8cc\	.	.	.	4F\	qui	.	.	.	.
.	.	.	.	.	8f/J	.	8cc\J	.	.	.	.	.	.	.	.	.
=85	=85	=85	=85	=85	=85	=85	=85	=85	=85	=85	=85	=85	=85	=85	=85	=85
!	!	!	!	!	!	!	!	!	!	!	!LO:PB:g=original	!	!	!	!	!
4F\	6 4	.	4f\	.	8r	.	8r	.	.	.	8D/L	ve-	1r	.	1r	.
.	.	.	.	.	8d/L	.	8f/L 8b-/	.	.	.	8F/J	.	.	.	.	.
4r	.	.	4r	.	8d/	.	8f/ 8b-/	.	.	.	8B-\	-nit	.	.	.	.
.	.	.	.	.	8d/J	.	8f/J 8b-/	.	.	.	8d\	in	.	.	.	.
*	*	*	*	*	*	*	*rep	*	*	*	*	*	*	*	*	*
4F\	_ _	.	4f\	.	8r	.	8r	.	.	.	8f\L	no-	.	.	.	.
!	!	!	!	!	!LO:SIC:o:t:v=znak powtórzenia grupy	!	!LO:SIC:o:t:v=znak powtórzenia grupy	!	!	!	!	!	!	!	!	!
*	*	*	*	*	*rep	*	*	*	*	*	*	*	*	*	*	*
.	.	.	.	.	8d/L	.	8f/L 8b-/	.	.	.	8e\J	.	.	.	.	.
4r	x x	.	4r	.	8d/	.	8f/ 8b-/	.	.	.	8f\	-mi-	.	.	.	.
.	.	.	.	.	8d/J	.	8f/J 8b-/	.	.	.	8d\	-ne	.	.	.	.
*	*	*	*	*	*Xrep	*	*Xrep	*	*	*	*	*	*	*	*	*
=86	=86	=86	=86	=86	=86	=86	=86	=86	=86	=86	=86	=86	=86	=86	=86	=86
!	!	!	!	!	!LO:PB:g=original	!	!	!	!	!	!	!	!	!	!	!
4F\	5 3	.	4f\	.	8r	.	8r	.	.	.	4.c\	Do-	1r	.	1r	.
.	.	.	.	.	8c/L	.	8a/L	.	.	.	.	.	.	.	.	.
4r	.	.	4r	.	8c/	.	8a/	.	.	.	.	.	.	.	.	.
.	.	.	.	.	8B-/J	.	8g/J	.	.	.	8B-\	-mi-	.	.	.	.
4F\	_ _	.	4f\	.	8r	.	8r	.	.	.	4A\	-ni	.	.	.	.
.	.	.	.	.	8A/L	.	8f/L	.	.	.	.	.	.	.	.	.
4r	x x	.	4r	.	8c/	.	8a/	.	.	.	(8c\L	qui	.	.	.	.
.	.	.	.	.	8c/J	.	8b-/J	.	.	.	8d\J)	.	.	.	.	.
=87	=87	=87	=87	=87	=87	=87	=87	=87	=87	=87	=87	=87	=87	=87	=87	=87
4C/	7 5	.	4e\	.	8r	.	8r	.	2r	.	(8c\L	ve-	1r	.	1r	.
.	.	.	.	.	8B-/L	.	8g/L	.	.	.	8B-\J)	.	.	.	.	.
4r	.	.	4r	.	8B-/	.	8g/	.	.	.	4B-\	-nit	.	.	.	.
.	.	.	.	.	8B-/J	.	8g/J	.	.	.	.	.	.	.	.	.
4C/	_ _	.	4e\	.	8r	.	8r	.	16bb-X\LL	.	4r	.	.	.	.	.
.	.	.	.	.	.	.	.	.	16gg\	.	.	.	.	.	.	.
.	.	.	.	.	8B-/L	.	8g/L	.	16ee\	.	.	.	.	.	.	.
.	.	.	.	.	.	.	.	.	16cc\JJ	.	.	.	.	.	.	.
4r	x x	.	4r	.	8B-/	.	8g/	.	4b-\	.	(8B-\L	qui	.	.	.	.
.	.	.	.	.	8c/J	.	8a/J	.	.	.	8c\J)	.	.	.	.	.
=88	=88	=88	=88	=88	=88	=88	=88	=88	=88	=88	=88	=88	=88	=88	=88	=88
!	!	!	!	!	!	!	!LO:PB:g=original	!	!	!	!	!	!	!	!	!
4F\	3	.	4f\	.	8r	.	8r	.	2r	.	(8B-\L	ve-	1r	.	1r	.
.	.	.	.	.	8A/L	.	8f/L	.	.	.	8A\J)	.	.	.	.	.
4r	.	.	4r	.	8A/	.	8f/	.	.	.	4A\	-nit	.	.	.	.
.	.	.	.	.	8A/J	.	8f/J	.	.	.	.	.	.	.	.	.
4F\	3	.	4f\	.	8r	.	8r	.	(16aa\LL	.	4r	.	.	.	.	.
.	.	.	.	.	.	.	.	.	16ff\	.	.	.	.	.	.	.
.	.	.	.	.	8c/L	.	8a/L	.	16cc\	.	.	.	.	.	.	.
.	.	.	.	.	.	.	.	.	16a\JJ)	.	.	.	.	.	.	.
4r	.	.	4r	.	8c/	.	8a/	.	4f/	.	4c\	in	.	.	.	.
.	.	.	.	.	8c/J	.	8a/J	.	.	.	.	.	.	.	.	.
=89	=89	=89	=89	=89	=89	=89	=89	=89	=89	=89	=89	=89	=89	=89	=89	=89
!	!	!	!LO:SIC:o:t:v=laska z prawej strony	!	!	!	!	!	!LO:TX:a:t=1	!	!	!	!	!	!	!
*	*	*	*2\right	*	*	*	*	*	*	*	*	*	*	*	*	*
2F\	3	.	2f\	.	8f/L	.	8a/L	.	1r	.	(8f\L	no-	1r	.	1r	.
.	.	.	.	.	8e/	.	8g/	.	.	.	8e\J)	.	.	.	.	.
.	.	.	.	.	8d/	.	8f/	.	.	.	8d\	-mi-	.	.	.	.
.	.	.	.	.	8c/J	.	8e/J	.	.	.	8c\	-ne	.	.	.	.
4BB-/	7	.	4B-/	.	8c/L	.	8a/L	.	.	.	(8c\L	Do-	.	.	.	.
.	6	.	.	.	8B-/	.	8g/	.	.	.	8B-\J)	.	.	.	.	.
4BB-/	6	.	4B-/	.	8B-/	.	8g/	.	.	.	(8B-\L	-mi-	.	.	.	.
.	5	.	.	.	8A/J	.	8f/J	.	.	.	8A\J)	.	.	.	.	.
=90	=90	=90	=90	=90	=90	=90	=90	=90	=90	=90	=90	=90	=90	=90	=90	=90
!	!	!	!LO:PB:g=original	!	!	!	!	!	!	!	!LO:PB:g=original	!	!	!	!	!
4C/	5 3	.	4c\	.	4G/	.	4c/ 4e/	.	4r	.	2G/	-ni	1r	.	1r	.
4C/	.	.	4c\	.	4G/	.	4c/ 4e/	.	16g\LL	.	.	.	.	.	.	.
.	.	.	.	.	.	.	.	.	16cc\	.	.	.	.	.	.	.
.	.	.	.	.	.	.	.	.	16ee\	.	.	.	.	.	.	.
.	.	.	.	.	.	.	.	.	16gg\JJ	.	.	.	.	.	.	.
4C/	.	.	4c\	.	4G/	.	4c/ 4e/	.	4ccc\	.	4C/	be-	.	.	.	.
4r	.	.	4r	.	4r	.	4r	.	4r	.	4C/	-ne-	.	.	.	.
=91	=91	=91	=91	=91	=91	=91	=91	=91	=91	=91	=91	=91	=91	=91	=91	=91
!	!	!	!	!	!	!	!	!	!LO:PB:g=original	!	!	!	!	!	!	!
!	!	!	!	!	!	!	!	!	!LO:TX:a:t=5	!	!	!	!	!	!	!
4F\	3	.	4F/	.	8r	.	8r	.	00r	.	2A\	-di-	1r	.	1r	.
.	.	.	.	.	8c/L	.	8f/L	.	.	.	.	.	.	.	.	.
4r	.	.	4r	.	8c/	.	8f/	.	.	.	.	.	.	.	.	.
.	.	.	.	.	8c/J	.	8f/J	.	.	.	.	.	.	.	.	.
4G\	6	.	4G/	.	8r	.	8r	.	.	.	4G\	-ctus	.	.	.	.
.	.	.	.	.	8B-/L	.	8e/L	.	.	.	.	.	.	.	.	.
4A\	6	.	4G/	.	8A/	.	8f/	.	.	.	4F\	qui	.	.	.	.
.	.	.	.	.	8A/J	.	8f/J	.	.	.	.	.	.	.	.	.
=92	=92	=92	=92	=92	=92	=92	=92	=92	=92	=92	=92	=92	=92	=92	=92	=92
8B-\L	7 3	.	8B-/L	.	2c/	.	2g/	.	.	.	(16E/LL	ve-	1r	.	1r	.
.	.	.	.	.	.	.	.	.	.	.	16G/)	.	.	.	.	.
8A\	6	.	8A/	.	.	.	.	.	.	.	(16F/	.	.	.	.	.
.	.	.	.	.	.	.	.	.	.	.	16A/JJ)	.	.	.	.	.
8G\	8 4	.	8G/	.	.	.	.	.	.	.	(16G/LL	.	.	.	.	.
.	.	.	.	.	.	.	.	.	.	.	16B-/)	.	.	.	.	.
8F\J	10 5	.	8F/J	.	.	.	.	.	.	.	(16A/	.	.	.	.	.
.	.	.	.	.	.	.	.	.	.	.	16c/JJ)	.	.	.	.	.
4E\	6 5	.	4E/	.	4c/	.	4g/	.	.	.	4B-\	-nit	.	.	.	.
4r	.	.	4r	.	4r	.	4r	.	.	.	8C/	be-	.	.	.	.
.	.	.	.	.	.	.	.	.	.	.	8C/	-ne	.	.	.	.
=93	=93	=93	=93	=93	=93	=93	=93	=93	=93	=93	=93	=93	=93	=93	=93	=93
!LO:PB:g=original	!	!	!	!	!	!	!	!	!	!	!	!	!	!	!	!
!	!	!	!	!	!LO:TX:t=P:dwa takty dopisane pod pięciolinią	!	!	!	!	!	!	!	!	!	!	!
4E\	6 5	.	4E/	.	8r	.	8r	.	.	.	2B-\	di-	1r	.	1r	.
.	.	.	.	.	8c/L	.	8g/L	.	.	.	.	.	.	.	.	.
4r	.	.	4r	.	8c/	.	8g/	.	.	.	.	.	.	.	.	.
.	.	.	.	.	8c/J	.	8g/J	.	.	.	.	.	.	.	.	.
4F\	.	.	4F/	.	8r	.	8r	.	.	.	4A\	-ctus	.	.	.	.
!	!	!	!	!	!LO:SIC:o:t:v=znak powtórzenia grupy	!	!	!	!	!	!	!	!	!	!	!
*	*	*	*	*	*rep	*	*	*	*	*	*	*	*	*	*	*
.	.	.	.	.	8c/L	.	8g/L	.	.	.	.	.	.	.	.	.
4B-\	4 2	.	4B-/	.	8c/	.	8g/	.	.	.	4G\	qui	.	.	.	.
.	.	.	.	.	8c/J	.	8g/J	.	.	.	.	.	.	.	.	.
*	*	*	*	*	*Xrep	*	*	*	*	*	*	*	*	*	*	*
=94	=94	=94	=94	=94	=94	=94	=94	=94	=94	=94	=94	=94	=94	=94	=94	=94
*	*	*	*	*	*tremolo	*	*tremolo	*	*	*	*	*	*	*	*	*
8A\L	3	.	8A/L	.	8c/L	.	8f/L 8a/	.	.	.	(16F/LL	ve-	1r	.	1r	.
.	.	.	.	.	.	.	.	.	.	.	16A/	.	.	.	.	.
8E\	6 3	.	8E/	.	8c/	.	8f/ 8a/	.	.	.	(16G/)	.	.	.	.	.
.	.	.	.	.	.	.	.	.	.	.	16B-/JJ)	.	.	.	.	.
8F\	5 3	.	8F/	.	8c/	.	8f/ 8a/	.	.	.	(16A\LL	.	.	.	.	.
.	.	.	.	.	.	.	.	.	.	.	16c\)	.	.	.	.	.
8G\J	6 3	.	8G/J	.	8c/J	.	8f/J 8a/	.	.	.	(16B-\	.	.	.	.	.
.	.	.	.	.	.	.	.	.	.	.	16d\JJ)	.	.	.	.	.
4A\	6 3	.	4A/	.	4c/	.	4f/ 4a/	.	.	.	4c\	-nit	.	.	.	.
4r	.	.	4r	.	4r	.	4r	.	.	.	8c\	be-	.	.	.	.
.	.	.	.	.	.	.	.	.	.	.	8A\	-ne-	.	.	.	.
*	*	*	*	*	*Xtremolo	*	*Xtremolo	*	*	*	*	*	*	*	*	*
=95	=95	=95	=95	=95	=95	=95	=95	=95	=95	=95	=95	=95	=95	=95	=95	=95
!	!	!	!	!	!LO:PB:g=original	!	!	!	!	!	!	!	!	!	!	!
4D\	7 5 #	.	4d\	.	8r	.	8r	.	1r	.	8G/L	-di-	1r	.	1r	.
.	.	.	.	.	8c/L	.	8f#X/L	.	.	.	8F#X/J	.	.	.	.	.
4r	.	.	4r	.	8d/	.	8f#/	.	.	.	2F#/	-ctus	.	.	.	.
.	.	.	.	.	8e-X/J	.	8f#/J	.	.	.	.	.	.	.	.	.
*	*	*	*	*	*	*	*tremolo	*	*	*	*	*	*	*	*	*
4D\	_ _ _	.	4d\	.	8e-/L	.	8f#/L	.	.	.	.	.	.	.	.	.
.	.	.	.	.	8d/	.	8f#/	.	.	.	.	.	.	.	.	.
4r	x x x	.	4r	.	8d/	.	8f#/	.	.	.	4F#/	qui	.	.	.	.
.	.	.	.	.	8c/J	.	8f#/J	.	.	.	.	.	.	.	.	.
*	*	*	*	*	*	*	*Xtremolo	*	*	*	*	*	*	*	*	*
=96	=96	=96	=96	=96	=96	=96	=96	=96	=96	=96	=96	=96	=96	=96	=96	=96
!	!	!	!	!	!	!	!	!	!	!	!LO:PB:g=original	!	!	!	!	!
4G\	6	.	4g\	.	4B-/	.	4g/	.	4r	.	8A\L	ve-	1r	.	1r	.
.	.	.	.	.	.	.	.	.	.	.	8G\J	.	.	.	.	.
4GG/	_	.	4G/	.	4d/	.	4b-/	.	(16dd\LL	.	4G\	-nit	.	.	.	.
.	.	.	.	.	.	.	.	.	16gg\	.	.	.	.	.	.	.
.	.	.	.	.	.	.	.	.	16b-\	.	.	.	.	.	.	.
.	.	.	.	.	.	.	.	.	16dd\JJ)	.	.	.	.	.	.	.
4GG/	_	.	4G/	.	4B-/	.	4g/	.	4g/	.	4r	.	.	.	.	.
4r	x	.	4r	.	4r	.	4r	.	4r	.	8B-\	be-	.	.	.	.
.	.	.	.	.	.	.	.	.	.	.	8G\	-ne-	.	.	.	.
=97	=97	=97	=97	=97	=97	=97	=97	=97	=97	=97	=97	=97	=97	=97	=97	=97
!	!	!	!	!	!	!	!	!	!LO:TX:a:t=1	!	!	!	!	!	!	!
4C/	7	.	4c\	.	8r	.	8r	.	1r	.	8Fn/L	-di-	1r	.	1r	.
.	.	.	.	.	8B-/L	.	8e/L	.	.	.	8E/J	.	.	.	.	.
4r	.	.	4r	.	8c/	.	8e/	.	.	.	2E/	-ctus	.	.	.	.
.	.	.	.	.	8d-X/J	.	8e/J	.	.	.	.	.	.	.	.	.
*	*	*	*	*	*	*	*tremolo	*	*	*	*	*	*	*	*	*
4C/	_	.	4c\	.	8d-/L	.	8e/L	.	.	.	.	.	.	.	.	.
.	.	.	.	.	8c/	.	8e/	.	.	.	.	.	.	.	.	.
4r	x	.	4r	.	8c/	.	8e/	.	.	.	4E/	qui	.	.	.	.
.	.	.	.	.	8B-/J	.	8e/J	.	.	.	.	.	.	.	.	.
*	*	*	*	*	*	*	*Xtremolo	*	*	*	*	*	*	*	*	*
=98	=98	=98	=98	=98	=98	=98	=98	=98	=98	=98	=98	=98	=98	=98	=98	=98
!	!	!	!	!	!	!	!LO:PB:g=original	!	!	!	!	!	!	!	!	!
4F\	.	.	4f\	.	4A/	.	4f/	.	4r	.	(8G/L	ve-	1r	.	1r	.
.	.	.	.	.	.	.	.	.	.	.	8F/J)	.	.	.	.	.
4FF/	.	.	4F/	.	4c/	.	4a/	.	(16cc\LL	.	4F/	-nit	.	.	.	.
.	.	.	.	.	.	.	.	.	16ff\	.	.	.	.	.	.	.
.	.	.	.	.	.	.	.	.	16a\	.	.	.	.	.	.	.
.	.	.	.	.	.	.	.	.	16cc\JJ)	.	.	.	.	.	.	.
4FF/	.	.	4F/	.	4A/	.	4f/	.	4f/	.	4r	.	.	.	.	.
4r	.	.	4r	.	4r	.	4r	.	4r	.	4A\	in	.	.	.	.
=99	=99	=99	=99	=99	=99	=99	=99	=99	=99	=99	=99	=99	=99	=99	=99	=99
!	!	!	!LO:PB:g=original	!	!	!	!	!	!	!	!	!	!	!	!	!
!	!	!	!	!	!	!	!	!	!LO:TX:a:t=2	!	!	!	!	!	!	!
2BB-/	6 3	.	2B-/	.	2d/	.	2g/	.	0r	.	8A\L	no-	1r	.	1r	.
.	.	.	.	.	.	.	.	.	.	.	8G\J	.	.	.	.	.
.	.	.	.	.	.	.	.	.	.	.	8B-\	-mi-	.	.	.	.
.	.	.	.	.	.	.	.	.	.	.	8A\	-ne	.	.	.	.
4BB-/	6 3	.	4B-/	.	4d/	.	4g/	.	.	.	8A\L	Do-	.	.	.	.
.	.	.	.	.	.	.	.	.	.	.	8G\J	.	.	.	.	.
4BB-/	5 3	.	4B-/	.	4d/	.	4g/	.	.	.	8G\L	-mi-	.	.	.	.
.	.	.	.	.	.	.	.	.	.	.	8F\J	.	.	.	.	.
=100	=100	=100	=100	=100	=100	=100	=100	=100	=100	=100	=100	=100	=100	=100	=100	=100
*	*	*	*2\left	*	*	*	*	*	*	*	*	*	*	*	*	*
2C/	6 3	.	2c\	.	2G/	.	4e/	.	.	.	2E/	-ni	1r	.	1r	.
.	.	.	.	.	.	.	4e/	.	.	.	.	.	.	.	.	.
2r	.	.	2r	.	2r	.	2r	.	.	.	4c\	be-	.	.	.	.
.	.	.	.	.	.	.	.	.	.	.	4c\	-ne-	.	.	.	.
=101	=101	=101	=101	=101	=101	=101	=101	=101	=101	=101	=101	=101	=101	=101	=101	=101
*	*	*	*tremolo	*	*tremolo	*	*tremolo	*	*	*	*	*	*	*	*	*
4C/	7 5	.	(8c/L	pp	8G/L	.	8c/L	.	4r	.	(16B-\LL	-di-	1r	.	1r	.
.	.	.	.	.	.	.	.	.	.	.	16c\	.	.	.	.	.
.	.	.	8G/	.	8B-/	.	8e/	.	.	.	16B-\	.	.	.	.	.
.	.	.	.	.	.	.	.	.	.	.	16A\JJ)	.	.	.	.	.
4r	.	.	8c/	.	8G/	.	8c/	.	(16g\LL	.	4G/	-ctus	.	.	.	.
.	.	.	.	.	.	.	.	.	16cc\	.	.	.	.	.	.	.
.	.	.	8G/J	.	8B-/J	.	8e/J	.	16ee\	.	.	.	.	.	.	.
.	.	.	.	.	.	.	.	.	16gg\JJ)	.	.	.	.	.	.	.
!	!	!	!	!	!LO:SIC:o:t:v=znak powtórzenia grupy	!	!	!	!	!	!	!	!	!	!	!
*	*	*	*	*	*rep	*	*	*	*	*	*	*	*	*	*	*
4c\	_ _	.	8c/L	.	8G/L	.	8c/L	.	4bb-\	.	4r	.	.	.	.	.
.	.	.	8G/	.	8B-/	.	8e/	.	.	.	.	.	.	.	.	.
4r	x x	.	8c/	.	8G/	.	8c/	.	4r	.	4c\	qui	.	.	.	.
.	.	.	8G/J)	.	8B-/J	.	8e/J	.	.	.	.	.	.	.	.	.
*	*	*	*	*	*Xrep	*	*	*	*	*	*	*	*	*	*	*
=102	=102	=102	=102	=102	=102	=102	=102	=102	=102	=102	=102	=102	=102	=102	=102	=102
!	!	!	!	!	!	!	!	!	!	!	!LO:PB:g=original	!	!	!	!	!
4FF/	3	.	8c/L	.	8A/L	.	8c/L	.	4r	.	16A\LL	ve-	1r	.	1r	.
.	.	.	.	.	.	.	.	.	.	.	16B-\	.	.	.	.	.
.	.	.	8A/	.	8c/	.	8f/	.	.	.	16A\	.	.	.	.	.
.	.	.	.	.	.	.	.	.	.	.	16G\JJ	.	.	.	.	.
4r	.	.	8c/	.	8A/	.	8c/	.	16a\LL	.	4F/	-nit	.	.	.	.
.	.	.	.	.	.	.	.	.	16cc\	.	.	.	.	.	.	.
.	.	.	8A/J	.	8c/J	.	8f/J	.	16ff\	.	.	.	.	.	.	.
.	.	.	.	.	.	.	.	.	16aa\JJ	.	.	.	.	.	.	.
!	!	!	!	!	!LO:SIC:o:t:v=znak powtórzenia grupy	!	!	!	!	!	!	!	!	!	!	!
*	*	*	*	*	*rep	*	*	*	*	*	*	*	*	*	*	*
4F\	_	.	8c/L	.	8A/L	.	8c/L	.	4ccc\	.	4r	.	.	.	.	.
.	.	.	8G/	.	8c/	.	8f/	.	.	.	.	.	.	.	.	.
4r	x	.	8c/	.	8A/	.	8c/	.	4r	.	4F/	in	.	.	.	.
.	.	.	8G/J	.	8c/J	.	8f/J	.	.	.	.	.	.	.	.	.
*	*	*	*	*	*Xrep	*	*Xtremolo	*	*	*	*	*	*	*	*	*
=103	=103	=103	=103	=103	=103	=103	=103	=103	=103	=103	=103	=103	=103	=103	=103	=103
!LO:PB:g=original	!	!	!	!	!	!	!	!	!	!	!	!	!	!	!	!
!	!	!	!	!	!	!	!	!	!LO:TX:a:t=3	!	!	!	!	!	!	!
4BB-/	.	.	4B-/	.	4B-/	.	4d/	.	0r	.	8D/L	ve-	1r	.	1r	.
.	.	.	.	.	.	.	.	.	.	.	(8E/	.	.	.	.	.
4r	.	.	4r	.	4r	.	4r	.	.	.	8F/	.	.	.	.	.
.	.	.	.	.	.	.	.	.	.	.	8F#X/J)	.	.	.	.	.
8B-\L	8	.	(8b-\L	.	8d/L	.	8f/L	.	.	.	(8G/L	-nit	.	.	.	.
8A\	3	.	8a\	.	8d/	.	8f/	.	.	.	8A/J)	.	.	.	.	.
8G\	3	.	8g\	.	8d/	.	8f#X/	.	.	.	(8B-\L	in	.	.	.	.
8F\J	4n 2	.	8f\J)	.	8d/J	.	8f#/J	.	.	.	8Bn\J)	.	.	.	.	.
=104	=104	=104	=104	=104	=104	=104	=104	=104	=104	=104	=104	=104	=104	=104	=104	=104
!	!	!	!	!	!LO:PB:g=original	!	!	!	!	!	!	!	!	!	!	!
4E\	6 3	.	4e\	.	4e/	.	4g/	.	.	.	4c\	no-	1r	.	1r	.
4C\	7 5	.	4c\	.	4g/	.	4g/	.	.	.	4B-X\	-mi-	.	.	.	.
4D\	5 3	.	4d\	.	4f/	.	4a/	.	.	.	4A\	-ne	.	.	.	.
4AA\	6 3	.	4e\	.	4c/	.	4g/	.	.	.	4A\	in	.	.	.	.
=105	=105	=105	=105	=105	=105	=105	=105	=105	=105	=105	=105	=105	=105	=105	=105	=105
4BB-/	6 3	.	4B-/	.	4d/	.	2f/	.	1r	.	8A\L	no-	1r	.	1r	.
.	.	.	.	.	.	.	.	.	.	.	8G\J	.	.	.	.	.
4B-\	_ _	.	4G/	.	8d/L	.	.	.	.	.	8B-\	-mi-	.	.	.	.
.	.	.	.	.	8B-/J	.	.	.	.	.	8A\	-ne	.	.	.	.
*	*	*	*	*	*Xtremolo	*	*	*	*	*	*	*	*	*	*	*
4c\	4	.	4c/	.	8B-/L	.	4e/	.	.	.	8G/L	Do-	.	.	.	.
.	.	.	.	.	8A/	.	.	.	.	.	(8F/	.	.	.	.	.
4C/	3	.	4c/	.	8A/	.	4e/	.	.	.	8F/)	-mi-	.	.	.	.
!	!	!	!	!	!	!	!	!	!LO:TX:b:i:t=Vorte do Solo	!	!	!	!	!	!	!
.	.	.	.	.	8G/J	.	.	.	.	.	8E/J	.	.	.	.	.
=106	=106	=106	=106	=106	=106	=106	=106	=106	=106	=106	=106	=106	=106	=106	=106	=106
!	!	!	!	!	!	!	!	!	!LO:LB:g=original	!	!	!	!	!	!	!
!	!	!	!	!	!	!	!	!	!	!	!LO:SIC:v:s=2F	!	!	!	!	!
2F\	.	.	2F/	.	2A/	.	4f/	.	2r	.	2E/	-ni	1r	.	1r	.
.	.	.	.	.	.	.	4r	.	.	.	.	.	.	.	.	.
!	!	!	!	!	!	!	!	!	!LO:TX:a:i:t=Dolce	!	!	!	!	!	!	!
2r	.	.	2r	.	2r	.	2r	.	4aa\	.	4f\	be-	.	.	.	.
.	.	.	.	.	.	.	.	.	4aa\	.	4e\	-ne-	.	.	.	.
=107	=107	=107	=107	=107	=107	=107	=107	=107	=107	=107	=107	=107	=107	=107	=107	=107
!LO:TX:a:t=2	!	!	!LO:TX:a:t=2	!	!	!LO:DY:rj	!	!	!	!	!	!	!	!	!	!
0r	.	.	0r	.	4dd\	p	4ff\	.	4bb-'\	.	(4d\	-di-	1r	.	1r	.
.	.	.	.	.	4cc\	.	4ee\	.	4aa'\	.	4c\)	.	.	.	.	.
.	.	.	.	.	4b-\	.	4dd\	.	(4ddd\	.	4B-\	-ctus	.	.	.	.
.	.	.	.	.	4a\	.	4cc\	.	4ccc\)	.	4A\	qui	.	.	.	.
=108	=108	=108	=108	=108	=108	=108	=108	=108	=108	=108	=108	=108	=108	=108	=108	=108
!	!	!	!	!	!	!	!LO:SIC:s:v=2bn	!	!LO:SIC:o:t:v=laska z prawej strony	!	!	!	!	!	!	!
.	.	.	.	.	2g/	.	2b-\	.	2bbn'\	.	2G/	ve-	1r	.	1r	.
.	.	.	.	.	4c/	.	4b-\	.	8bb-X\L	.	4c\	-nit	.	.	.	.
.	.	.	.	.	.	.	.	.	8ddd\	.	.	.	.	.	.	.
.	.	.	.	.	4cc\	.	4b-\	.	8ccc\	.	4c\	in	.	.	.	.
.	.	.	.	.	.	.	.	.	8bb-\J	.	.	.	.	.	.	.
=109	=109	=109	=109	=109	=109	=109	=109	=109	=109	=109	=109	=109	=109	=109	=109	=109
!	!	!	!	!	!	!	!	!	!	!	!LO:PB:g=original	!	!	!	!	!
4F\	3	.	4f\	.	4f/	.	4a/	.	(8aa\L	.	4f\	no-	1r	.	1r	.
.	.	.	.	.	.	p	.	.	8ccc\	.	.	.	.	.	.	.
.	.	.	.	.	.	.	.	.	.	.	16qqe/	.	.	.	.	.
4BB-/	6 3	.	4B-/	.	4d/	.	4f/	.	8bb-\	.	8d\	-mi-	.	.	.	.
.	.	.	.	.	.	.	.	.	.	.	16qqc/	.	.	.	.	.
.	.	.	.	.	.	.	.	.	8gg\J)	.	8B-\	-ne	.	.	.	.
4C/	7	.	4c\	.	4c/	.	4e/	.	4ff\	.	4A\	Do-	.	.	.	.
4C/	3	.	4c\	.	4c/	.	4b-/	.	4ee\	.	4G\	-mi-	.	.	.	.
=110	=110	=110	=110	=110	=110	=110	=110	=110	=110	=110	=110	=110	=110	=110	=110	=110
!	!	!	!LO:PB:g=original	!	!	!	!LO:PB:g=original	!	!	!	!	!	!	!	!	!
4F\	3	.	4f\	.	8f/L	.	8a\L	.	2ff\	.	4F/	-ni	1r	.	1r	.
.	.	.	.	.	8a/J	.	8cc\J	.	.	.	.	.	.	.	.	.
4FF/	2	.	4F/	.	4f/	.	4a\	.	.	.	4r	.	.	.	.	.
4r	.	.	2r	.	2r	.	2r	.	(16bbn\LL	.	2r	.	.	.	.	.
.	.	.	.	.	.	.	.	.	16ccc\	.	.	.	.	.	.	.
.	.	.	.	.	.	.	.	.	16ddd\	.	.	.	.	.	.	.
.	.	.	.	.	.	.	.	.	16ccc\JJ	.	.	.	.	.	.	.
4r	.	.	.	.	.	.	.	.	16bb-X\LL	.	.	.	.	.	.	.
.	.	.	.	.	.	.	.	.	16aa\	.	.	.	.	.	.	.
.	.	.	.	.	.	.	.	.	16gg\	.	.	.	.	.	.	.
.	.	.	.	.	.	.	.	.	16ff\JJ)	.	.	.	.	.	.	.
=111	=111	=111	=111	=111	=111	=111	=111	=111	=111	=111	=111	=111	=111	=111	=111	=111
!	!	!	!LO:SIC:o:t:v=takty 111-2 w powtórce	!	!	!	!	!	!	!	!LO:TX:a:t=15	!	!	!	!	!
8G\L	6	.	8g\L	.	8b-/L	.	2cc\	.	16ee\LL	.	1r	.	1r	.	1r	.
.	.	.	.	.	.	.	.	.	16gg\	.	.	.	.	.	.	.
8F\	8	.	8f\	.	8a/	.	.	.	16ff\	.	.	.	.	.	.	.
.	.	.	.	.	.	.	.	.	16aa\JJ	.	.	.	.	.	.	.
8B-\	4 2	.	8e\	.	8g/	.	.	.	16gg\LL	.	.	.	.	.	.	.
.	.	.	.	.	.	.	.	.	16bb-\	.	.	.	.	.	.	.
8A\J	6 3	.	8f\J	.	8f/J	.	.	.	16aa\	.	.	.	.	.	.	.
.	.	.	.	.	.	.	.	.	16ccc\JJ	.	.	.	.	.	.	.
4c\	3	.	4c\	.	4g/	.	4cc\	.	16bb-\LL	.	.	.	.	.	.	.
.	.	.	.	.	.	.	.	.	16aa\	.	.	.	.	.	.	.
.	.	.	.	.	.	.	.	.	16gg\	.	.	.	.	.	.	.
.	.	.	.	.	.	.	.	.	16ff\JJ	.	.	.	.	.	.	.
4C/	7	.	4c\	.	4cc\	.	4cc\	.	16ee\LL	.	.	.	.	.	.	.
.	.	.	.	.	.	.	.	.	16dd\	.	.	.	.	.	.	.
.	.	.	.	.	.	.	.	.	16cc\	.	.	.	.	.	.	.
.	.	.	.	.	.	.	.	.	16b-\JJ	.	.	.	.	.	.	.
=112	=112	=112	=112	=112	=112	=112	=112	=112	=112	=112	=112	=112	=112	=112	=112	=112
!	!	!	!	!	!	!	!	!	!LO:PB:g=original	!	!	!	!	!	!	!
4F\	3	.	4F/	.	4a/	.	4cc\	.	16a\LL	.	1r	.	1r	.	1r	.
.	.	.	.	.	.	.	.	.	16cc\	.	.	.	.	.	.	.
.	.	.	.	.	.	.	.	.	16ff\	.	.	.	.	.	.	.
.	.	.	.	.	.	.	.	.	16aa\JJ	.	.	.	.	.	.	.
4r	.	.	4r	.	4r	.	4r	.	16ccc\LL	.	.	.	.	.	.	.
.	.	.	.	.	.	.	.	.	16aa\	.	.	.	.	.	.	.
.	.	.	.	.	.	.	.	.	16ddd\	.	.	.	.	.	.	.
.	.	.	.	.	.	.	.	.	16ccc\JJ	.	.	.	.	.	.	.
2r	.	.	2r	.	2r	.	2r	.	16bbn\LL	.	.	.	.	.	.	.
.	.	.	.	.	.	.	.	.	16ccc\	.	.	.	.	.	.	.
.	.	.	.	.	.	.	.	.	16ddd\	.	.	.	.	.	.	.
.	.	.	.	.	.	.	.	.	16ccc\JJ	.	.	.	.	.	.	.
.	.	.	.	.	.	.	.	.	16bb-X\LL	.	.	.	.	.	.	.
.	.	.	.	.	.	.	.	.	16aa\	.	.	.	.	.	.	.
.	.	.	.	.	.	.	.	.	16gg\	.	.	.	.	.	.	.
.	.	.	.	.	.	.	.	.	16ff\JJ	.	.	.	.	.	.	.
=113	=113	=113	=113	=113	=113	=113	=113	=113	=113	=113	=113	=113	=113	=113	=113	=113
!	!	!	!	!	!LO:PB:g=original	!	!	!	!	!	!	!	!	!	!	!
8G\L	6	.	8g\Lyy	.	8b-/L	.	2cc\	.	16ee\LL	.	1r	.	1r	.	1r	.
.	.	.	.	.	.	.	.	.	16gg\	.	.	.	.	.	.	.
8F\	3	.	8f\yy	.	8a/	.	.	.	16ff\	.	.	.	.	.	.	.
.	.	.	.	.	.	.	.	.	16aa\JJ	.	.	.	.	.	.	.
8B-\	4 2	.	8e\yy	.	8g/	.	.	.	16gg\LL	.	.	.	.	.	.	.
.	.	.	.	.	.	.	.	.	16bb-\	.	.	.	.	.	.	.
8A\J	6 3	.	8f\Jyy	.	8f/J	.	.	.	16aa\	.	.	.	.	.	.	.
.	.	.	.	.	.	.	.	.	16ccc\JJ	.	.	.	.	.	.	.
4c\	.	.	4c\yy	.	4g/	.	4cc\	.	16bb-\LL	.	.	.	.	.	.	.
.	.	.	.	.	.	.	.	.	16aa\	.	.	.	.	.	.	.
.	.	.	.	.	.	.	.	.	16gg\	.	.	.	.	.	.	.
.	.	.	.	.	.	.	.	.	16ff\JJ	.	.	.	.	.	.	.
4C/	7 5	.	4c\yy	.	4cc\	.	4cc\	.	16ee\LL	.	.	.	.	.	.	.
.	.	.	.	.	.	.	.	.	16dd\	.	.	.	.	.	.	.
.	.	.	.	.	.	.	.	.	16cc\	.	.	.	.	.	.	.
.	.	.	.	.	.	.	.	.	16b-\JJ	.	.	.	.	.	.	.
=114	=114	=114	=114	=114	=114	=114	=114	=114	=114	=114	=114	=114	=114	=114	=114	=114
!LO:PB:g=original	!	!	!	!	!	!	!	!	!	!	!	!	!	!	!	!
4F\	3	.	4F/yy	.	4a/	.	4cc\	.	16a/LL	.	1r	.	1r	.	1r	.
.	.	.	.	.	.	.	.	.	16f/	.	.	.	.	.	.	.
.	.	.	.	.	.	.	.	.	16g/	.	.	.	.	.	.	.
.	.	.	.	.	.	.	.	.	16a/JJ	.	.	.	.	.	.	.
4r	.	.	4ryy	.	4r	.	4r	.	16b-\LL	.	.	.	.	.	.	.
.	.	.	.	.	.	.	.	.	16cc\	.	.	.	.	.	.	.
.	.	.	.	.	.	.	.	.	16dd\	.	.	.	.	.	.	.
.	.	.	.	.	.	.	.	.	16ee\JJ	.	.	.	.	.	.	.
2r	.	.	2ryy	.	2r	.	2r	.	16ff\LL	.	.	.	.	.	.	.
.	.	.	.	.	.	.	.	.	16gg\	.	.	.	.	.	.	.
.	.	.	.	.	.	.	.	.	16aa\	.	.	.	.	.	.	.
.	.	.	.	.	.	.	.	.	16bb-\JJ	.	.	.	.	.	.	.
.	.	.	.	.	.	.	.	.	8ccc\L	.	.	.	.	.	.	.
.	.	.	.	.	.	.	.	.	8ccc\J	.	.	.	.	.	.	.
=115	=115	=115	=115	=115	=115	=115	=115	=115	=115	=115	=115	=115	=115	=115	=115	=115
!	!	!	!	!	!	!	!	!	!LO:PB:g=original	!	!	!	!	!	!	!
*	*	*	*2\right	*	*	*	*	*	*	*	*	*	*	*	*	*
!	!	!	!LO:SIC:o:t:v=laska z prawej strony	!	!	!	!	!	!	!	!	!	!	!	!	!
4F\	5 3	.	2f\	.	8A/L	.	2a/	.	2fff\	.	1r	.	1r	.	1r	.
.	.	.	.	.	8B-/	.	.	.	.	.	.	.	.	.	.	.
4r	7- 5	.	.	.	8c/	.	.	.	.	.	.	.	.	.	.	.
.	.	.	.	.	8d/J	.	.	.	.	.	.	.	.	.	.	.
!	!	!	!LO:SIC:o:t:v=laska z prawej strony	!	!	!	!	!	!	!	!	!	!	!	!	!
4F\	.	.	2f\	.	8c/L	.	2a/	.	2e-XT/	.	.	.	.	.	.	.
.	.	.	.	.	8B-/	.	.	.	.	.	.	.	.	.	.	.
4r	.	.	.	.	8A/	.	.	.	.	.	.	.	.	.	.	.
.	.	.	.	.	8c/J	.	.	.	.	.	.	.	.	.	.	.
=116	=116	=116	=116	=116	=116	=116	=116	=116	=116	=116	=116	=116	=116	=116	=116	=116
!	!	!	!	!	!	!	!	!	!LO:SIC:o:t:v=do końca skreślony fragment i wpisany poniżej	!	!	!	!	!	!	!
4BB-/	5 3	.	4B-/	.	4d/	.	4b-X\	.	16d'/LL	.	1r	.	1r	.	1r	.
.	.	.	.	.	.	.	.	.	(16B-/	.	.	.	.	.	.	.
.	.	.	.	.	.	.	.	.	16f/)	.	.	.	.	.	.	.
.	.	.	.	.	.	.	.	.	16d'/JJ	.	.	.	.	.	.	.
4r	.	.	4r	.	4r	.	4r	.	16b-'\LL	.	.	.	.	.	.	.
.	.	.	.	.	.	.	.	.	(16f\	.	.	.	.	.	.	.
.	.	.	.	.	.	.	.	.	16dd\)	.	.	.	.	.	.	.
.	.	.	.	.	.	.	.	.	16b-'\JJ	.	.	.	.	.	.	.
2r	.	.	2r	.	2r	.	2r	.	16ff'\LL	.	.	.	.	.	.	.
.	.	.	.	.	.	.	.	.	(16dd\	.	.	.	.	.	.	.
.	.	.	.	.	.	.	.	.	16bb-\)	.	.	.	.	.	.	.
.	.	.	.	.	.	.	.	.	16ff'\JJ	.	.	.	.	.	.	.
.	.	.	.	.	.	.	.	.	16ddd'\LL	.	.	.	.	.	.	.
.	.	.	.	.	.	.	.	.	(16bb-\	.	.	.	.	.	.	.
.	.	.	.	.	.	.	.	.	16fff\)	.	.	.	.	.	.	.
.	.	.	.	.	.	.	.	.	16ddd'\JJ	.	.	.	.	.	.	.
=117	=117	=117	=117	=117	=117	=117	=117	=117	=117	=117	=117	=117	=117	=117	=117	=117
8F\	3	.	8f\	.	8r	.	8r	.	16ccc\LL	.	1r	.	1r	.	1r	.
.	.	.	.	.	.	.	.	.	16ddd\	.	.	.	.	.	.	.
8r	.	.	8r	.	8c/	.	8f/	.	16eee\	.	.	.	.	.	.	.
.	.	.	.	.	.	.	.	.	16fff\JJ	.	.	.	.	.	.	.
8BB-/	6 3	.	8B-/	.	8r	.	4g/	.	16eee\LL	.	.	.	.	.	.	.
.	.	.	.	.	.	.	.	.	16ddd\	.	.	.	.	.	.	.
8r	.	.	8r	.	8B-/	.	.	.	16ccc\	.	.	.	.	.	.	.
.	.	.	.	.	.	.	.	.	16bb-\JJ	.	.	.	.	.	.	.
4C/	4	.	4c\	.	4A/	.	4a/	.	4aa\	.	.	.	.	.	.	.
4C/	3	.	4c\	.	4G/	.	4b-/	.	4ggT\	.	.	.	.	.	.	.
=118	=118	=118	=118	=118	=118	=118	=118	=118	=118	=118	=118	=118	=118	=118	=118	=118
4F\	.	.	4F/	.	4A/	.	4f/	.	4ff\	.	1r	.	1r	.	1r	.
4r	.	.	4r	.	4ff\	.	4aa\	.	2ccc\	.	.	.	.	.	.	.
2r	.	.	2r	.	4ee\	.	4gg\	.	.	.	.	.	.	.	.	.
.	.	.	.	.	4dd\	.	4ff\	.	4bb-\	.	.	.	.	.	.	.
=119	=119	=119	=119	=119	=119	=119	=119	=119	=119	=119	=119	=119	=119	=119	=119	=119
!LO:TX:a:t=2	!	!	!LO:TX:a:t=2	!	!	!	!	!	!	!	!	!	!	!	!	!
0r	.	.	0r	.	4cc\	.	4ee\	.	4aa\	.	1r	.	1r	.	1r	.
.	.	.	.	.	4b-\	.	4dd\	.	4gg\	.	.	.	.	.	.	.
.	.	.	.	.	4a\	.	4cc\	.	4ff#X\	.	.	.	.	.	.	.
.	.	.	.	.	4cc\	.	4dd\	.	4aa\	.	.	.	.	.	.	.
=120	=120	=120	=120	=120	=120	=120	=120	=120	=120	=120	=120	=120	=120	=120	=120	=120
.	.	.	.	.	8b-'\L	.	8g/L	.	(16gg\LL	.	1r	.	1r	.	1r	.
.	.	.	.	.	.	.	.	.	16aa\)	.	.	.	.	.	.	.
.	.	.	.	.	8cc'\	.	8f#X/	.	(16ff#X\	.	.	.	.	.	.	.
.	.	.	.	.	.	.	.	.	16aa\JJ)	.	.	.	.	.	.	.
.	.	.	.	.	8b-'\	.	8g/	.	16gg\LL	.	.	.	.	.	.	.
.	.	.	.	.	.	.	.	.	16aa\	.	.	.	.	.	.	.
.	.	.	.	.	8cc'\J	.	8f#/J	.	16ff#\	.	.	.	.	.	.	.
.	.	.	.	.	.	.	.	.	16aa\JJ	.	.	.	.	.	.	.
!	!	!	!	!	!	!	!	!	!LO:PB:g=original	!	!	!	!	!	!	!
.	.	.	.	.	8b-\L	.	8g/L	.	(16gg\LL	.	.	.	.	.	.	.
.	.	.	.	.	.	.	.	.	16bb-\	.	.	.	.	.	.	.
.	.	.	.	.	8f#X\	.	8a/	.	16aa\	.	.	.	.	.	.	.
.	.	.	.	.	.	.	.	.	16ccc\JJ)	.	.	.	.	.	.	.
.	.	.	.	.	8g\	.	8b-/	.	(16bb-\LL	.	.	.	.	.	.	.
.	.	.	.	.	.	.	.	.	16ddd\	.	.	.	.	.	.	.
.	.	.	.	.	8g\J	.	8b-/J	.	16ccc\)	.	.	.	.	.	.	.
.	.	.	.	.	.	.	.	.	16bb-\JJ	.	.	.	.	.	.	.
=121	=121	=121	=121	=121	=121	=121	=121	=121	=121	=121	=121	=121	=121	=121	=121	=121
!	!	!	!	!	!LO:PB:g=original	!	!	!	!	!	!	!	!	!	!	!
!	!	!	!LO:SIC:o:t:v=ósemka	!	!	!	!	!	!	!	!	!	!	!	!	!
!	!	!	!LO:N:vis=8	!	!	!	!	!	!	!	!	!	!	!	!	!
4C/	6 4	.	4f\	.	4a/	.	4f/	.	(16aa\LL	.	1r	.	1r	.	1r	.
.	.	.	.	.	.	.	.	.	16bb-\	.	.	.	.	.	.	.
.	.	.	.	.	.	.	.	.	16bbn\	.	.	.	.	.	.	.
.	.	.	.	.	.	.	.	.	16ccc\JJ)	.	.	.	.	.	.	.
4r	.	.	4r	.	4r	.	4r	.	(16ff\LL	.	.	.	.	.	.	.
.	.	.	.	.	.	.	.	.	16gg\	.	.	.	.	.	.	.
.	.	.	.	.	.	.	.	.	16gg#X\	.	.	.	.	.	.	.
.	.	.	.	.	.	.	.	.	16aa\JJ)	.	.	.	.	.	.	.
2r	.	.	2r	.	2r	.	2r	.	(16cc\LL	.	.	.	.	.	.	.
.	.	.	.	.	.	.	.	.	16dd\	.	.	.	.	.	.	.
.	.	.	.	.	.	.	.	.	16ee\	.	.	.	.	.	.	.
.	.	.	.	.	.	.	.	.	16ff\JJ)	.	.	.	.	.	.	.
.	.	.	.	.	.	.	.	.	(16a/LL	.	.	.	.	.	.	.
.	.	.	.	.	.	.	.	.	16b-/	.	.	.	.	.	.	.
.	.	.	.	.	.	.	.	.	16bn/	.	.	.	.	.	.	.
.	.	.	.	.	.	.	.	.	16cc/JJ)	.	.	.	.	.	.	.
=122	=122	=122	=122	=122	=122	=122	=122	=122	=122	=122	=122	=122	=122	=122	=122	=122
!	!	!	!	!	!LO:TX:a:t=1	!	!LO:TX:a:t=1	!	!	!	!	!	!	!	!	!
1r	.	.	1r	.	1r	.	1r	.	8f/L	.	1r	.	1r	.	1r	.
.	.	.	.	.	.	.	.	.	16g/L	.	.	.	.	.	.	.
.	.	.	.	.	.	.	.	.	16a/JJ	.	.	.	.	.	.	.
.	.	.	.	.	.	.	.	.	16b-\LL	.	.	.	.	.	.	.
.	.	.	.	.	.	.	.	.	16cc\	.	.	.	.	.	.	.
.	.	.	.	.	.	.	.	.	16dd\	.	.	.	.	.	.	.
.	.	.	.	.	.	.	.	.	16ee\JJ	.	.	.	.	.	.	.
.	.	.	.	.	.	.	.	.	16ff\LL	.	.	.	.	.	.	.
.	.	.	.	.	.	.	.	.	16gg\	.	.	.	.	.	.	.
.	.	.	.	.	.	.	.	.	16aa\	.	.	.	.	.	.	.
.	.	.	.	.	.	.	.	.	16bb-\JJ	.	.	.	.	.	.	.
.	.	.	.	.	.	.	.	.	16ccc\LL	.	.	.	.	.	.	.
.	.	.	.	.	.	.	.	.	16ddd\	.	.	.	.	.	.	.
.	.	.	.	.	.	.	.	.	16eee\	.	.	.	.	.	.	.
.	.	.	.	.	.	.	.	.	16fff\JJ	.	.	.	.	.	.	.
=123	=123	=123	=123	=123	=123	=123	=123	=123	=123	=123	=123	=123	=123	=123	=123	=123
*	*	*	*Xtremolo	*	*	*	*	*	*	*	*	*	*	*	*	*
!	!	!	!	!	!	!	!	!	!	!	!	!	!LO:SIC:o:t:v=laska z prawej strony	!LO:DY:rj	!	!LO:DY:rj
4C/	6 4	.	8r	.	8r	.	8r	.	2c/	.	1r	.	2f\	pp	2a\	pp
.	.	.	8c\L	.	8c/L 8f/	.	8a/L	.	.	.	.	.	.	.	.	.
4r	.	.	8c\	.	8c/ 8f/	.	8a/	.	.	.	.	.	.	.	.	.
.	.	.	8c\J	.	8c/J 8f/	.	8a/J	.	.	.	.	.	.	.	.	.
.	.	.	.	.	.	.	.	.	16qqff/LL	.	.	.	.	.	.	.
.	.	.	.	.	.	.	.	.	16qqgg/JJ	.	.	.	.	.	.	.
4C/	.	.	8r	.	8r	.	8r	.	2ggT\	.	.	.	2c/	.	2g\	.
.	.	.	8c\L	.	8c/L 8e/	.	8g/L	.	.	.	.	.	.	.	.	.
4r	.	.	8c\	.	8c/ 8e/	.	8g/	.	.	.	.	.	.	.	.	.
.	5 3	.	8c\J	.	8c/J 8e/	.	8g/J	.	.	.	.	.	.	.	.	.
=124	=124	=124	=124	=124	=124	=124	=124	=124	=124	=124	=124	=124	=124	=124	=124	=124
!	!	!	!LO:PB:g=original	!	!	!	!	!	!	!	!	!	!	!	!	!
1F\	5 3	.	1f\	.	4a/	<	1cc\	.	4ff\	.	1r	.	[2F/	.	1f/	.
.	6- 4	.	.	.	4b-/	.	.	.	16ee\LL	.	.	.	.	.	.	.
.	.	.	.	.	.	[	.	.	16bb-\	.	.	.	.	.	.	.
.	.	.	.	.	.	.	.	.	16ee\	.	.	.	.	.	.	.
.	.	.	.	.	.	.	.	.	16gg\JJ	.	.	.	.	.	.	.
.	5 3	.	.	.	4a/	>	.	.	8ff\L	.	.	.	2F/]	.	.	.
.	.	.	.	.	.	.	.	.	8ccc\J	.	.	.	.	.	.	.
.	6- 4	.	.	.	4b-/	]	.	.	16ee\LL	.	.	.	.	.	.	.
.	.	.	.	.	.	.	.	.	16bb-\	.	.	.	.	.	.	.
.	.	.	.	.	.	.	.	.	16ee\	.	.	.	.	.	.	.
.	.	.	.	.	.	.	.	.	16gg\JJ	.	.	.	.	.	.	.
=125	=125	=125	=125	=125	=125	=125	=125	=125	=125	=125	=125	=125	=125	=125	=125	=125
4F\	6- 4	.	4f\	.	2f/ 2b-/	.	4cc\	.	2gg\	.	1r	.	2F/	.	2f\	.
4C/	_ _	.	4c\	.	.	.	4f/	.	.	.	.	.	.	.	.	.
.	.	.	.	.	.	.	.	.	16qqaa/LL	.	.	.	.	.	.	.
.	.	.	.	.	.	.	.	.	16qqgg/JJ	.	.	.	.	.	.	.
4FF/	5 3	.	4F/	.	4f/ 4a/	.	2r	.	4ff\	.	.	.	4F/	.	4f\	.
4r	.	.	4r	.	4r	.	.	.	4r	.	.	.	4r	.	4r	.
==	==	==	==	==	==	==	==	==	==	==	==	==	==	==	==	==
*-	*-	*-	*-	*-	*-	*-	*-	*-	*-	*-	*-	*-	*-	*-	*-	*-
!!!system-decoration: s1,s2,s3,s4,s5,s6,s7,s8
!!!RDF**kern: > = above
!!!RDF**kern: < = below
!!!RDF**dynam: < = Cres
!!!ENC: Andrzej Borzym
!!!END: 2020-03-18
!!!ENC: Leszek Kubiak
!!!END: 2020-04-17
